!!!!SEGMENT: pl-wtm--r-2031--003_smietanski-emil-wladyslaw--grand-concert-op-25-finale.krn
!!!cenid: 18xx:2012
!!!COM: Śmietański, Emil Władysław
!!!COM-rismid: pe50041781
!!!CDT: 1845-1886
!!!CNT: Polish
!!!OPR: Grand Concert op. 25
!!!OTL: Finale
!!!OMV: 003
!!!PDT: 1869
!!!AGN: Secular
!!!SMS-siglum: PL-Wtm
!!!SMS-shelfmark: R 2031
!!!SMS-shelfwork: 001-003 M
!!!SMS-variant:
!!!SMS-altvar:
!!!NIFC-rismid: 1001112558
!!!URL-scan: http://repozytorium.nifc.pl/skany/pl-wtm-nut--r2031
!!!ONB-nifc: UWAGA: części Koncertu: 1. Maestoso, 2. Romanza, 3. Finale
!!!OMD: III. Allegro Finale.
**kern	**kern
*part1	*part1
*staff2	*staff1
*	*I"Piano
*clefF4	*clefG2
*k[f#c#g#]	*k[f#c#g#]
*f#:	*f#:
*M2/4	*M2/4
=1	=1
!LO:TX:t=P:problem:mixed beam	!
8CC#L 8CCC#/	8r
!LO:SIC:v:n=2:s=8E#	!
8G# 8E 8C# 8GG#\	8cc#L 8e#X 8c#/
!LO:SIC:v:n=2:s=8E#	!
8G# 8E 8C# 8GG#\	8cc# 8e# 8c#/
!LO:SIC:v:n=2:s=8E#	!
8G#J 8E 8C# 8GG#\	8cc#J 8e# 8c#/
=2	=2
8AL 8F# 8BB#X 8AA\	8b#XL 8f# 8B#X\
8a 8f# 8B#X 8A\	8bb#X 8ff# 8b#\
8g# 8e#X 8c# 8G#\	8ccc# 8ee#X 8cc#\
8G#J 8E#X 8C# 8GG#\	8cc#J 8e#X 8c#\
=3	=3
!LO:TX:t=P:problem:mixed beam	!
8CC#L 8CCC#/	8r
8G# 8E#X 8C# 8GG#\	8cc#L 8e#X 8c#\
8G# 8E# 8C# 8GG#\	8cc# 8e# 8c#\
8G#J 8E# 8C# 8GG#\	8cc#J 8e# 8c#\
=4	=4
8AL 8F# 8BB#X 8AA\	8b#XL 8f# 8B#X\
8a 8f# 8B#X 8A\	8bb#X 8ff# 8b#\
8g# 8e#X 8c# 8G#\	8ccc# 8ee#X 8cc#\
8G#J 8E#X 8C# 8GG#\	8cc#J 8e#X 8c#\
=5	=5
!LO:TX:t=P:problem:mixed beam	!
8CC#L 8CCC#/	8r
8G# 8E#X 8C# 8GG#\	8cc#L 8e#X 8c#\
8d 8G# 8D\	8ff# 8b#X 8f#\
8c#J 8G# 8C#\	8ee#XJ 8cc# 8e#\
=6	=6
8CC# 8CCC#/	8r
8G#L 8E#X 8C# 8GG#\	8cc#L 8e#X 8c#\
8f# 8B#X 8F#\	8aa 8b#X 8a\
8e#XJ 8c# 8E#X\	8gg#J 8cc# 8g#\
!!LO:LB:g=original
=7	=7
!LO:TX:t=P:problem:mixed beam	!
8CC#/L	8r
8G#J 8E#X 8C# 8GG#\	8cc#L 8e#X 8c#\
8aL 8d 8A\	8bb#X 8ff# 8b#X\
8g#J 8c# 8G#\	8ccc#J 8ee#X 8cc#\
*clefG2	*
=8	=8
8ddL 8g# 8d/	8fff#L 8bb#X 8ff#\
8cc#J 8g# 8c#/	8eee#X 8ccc# 8ee#X\
8ff#L 8b#X 8f#/	8aaa 8bb# 8aa\
8ee#XJ 8cc# 8e#X/	8ggg#J 8ccc# 8gg#\
=9	=9
*	*2\right
*	*8va
2aa 2ff# 2b#X 2a\	2bbb#X 2fff# 2bb#X\
*	*X8va
=10	=10
*	*8va
!LO:SIC:v:n=2:s=8ee#	!
8gg# 8ee 8cc# 8g#\	8cccc# 8eee#X 8ccc#\
*	*X8va
8r	8r
4r	4r
*clefF4	*
=11||	=11||
!LO:TX:t=P:problem:mixed beam	!
8FFF#/L	8r
8A 8F# 8C#\	8cc#L 8a 8c#\
8BB#X\	8b#X 8B#X\
8C#\J	8cc#J 8c#\
=12	=12
8AL 8F# 8C#\	8cc#L 8a 8c#\
8a 8f# 8c#\	8ccc# 8aa 8cc#\
8a 8f# 8c#\	8ccc# 8aa 8cc#\
8aJ 8f# 8c#\	8ccc#J 8aa 8cc#\
!!LO:LB:g=original
=13	=13
!LO:TX:t=P:problem:mixed beam	!
8FFF#/L	8r
8A 8D\	8ddL 8a 8d\
8E\	8ee 8e\
8F#\J	8ff#J 8f#\
=14	=14
8AL 8F# 8C#\	8cc#L 8a 8c#\
8a 8f# 8c#\	8ccc# 8aa 8cc#\
8a 8f# 8c#\	8ccc# 8aa 8cc#\
8aJ 8f# 8c#\	8ccc#J 8aa 8cc#\
=15	=15
8BB 8BBB/	8eeeL 8gg# 8ee\
8G#L 8D\	8ddd 8dd\
8d 8F#\	8ccc# 8cc#\
8G#J 8D\	8bbJ 8b\
=16	=16
!LO:TX:t=P:problem:mixed beam	!
8CC#/L	8bbL 8ff# 8b\
8A 8C#\	8aa 8a\
8c# 8F#\	8gg# 8g#\
8AJ 8C#\	8ff#J 8f#\
=17	=17
!LO:TX:t=P:problem:mixed beam	!LO:SIC:v:n=1:s=8ee#XL
8CC#/L	8ff#XL 8e#X\
8G# 8C#\	8gg# 8g#\
8e#X 8G#\	8ddd 8dd\
8cc#J 8e#\	8ccc#J 8cc#\
=18	=18
8f#L 8G#\	8bb#XL 8b#X\
8b#XJ 8f#\	8ggg# 8gg#\
*clefG2	*
4cc# 4e#X 4c#/	8ccc#\
.	8cccc#J 8ccc#\
*clefF4	*
!!LO:LB:g=original
=19	=19
!LO:TX:t=P:problem:mixed beam	!
8FFF#/L	8r
8A 8F# 8C#\	8cc#L 8a 8c#\
8BB#X\	8b#X 8B#X\
8C#\J	8cc#J 8c#\
=20	=20
8AL 8F# 8C#\	8cc#L 8a 8c#\
8a 8f# 8c#\	8ccc# 8aa 8cc#\
8a 8f# 8c#\	8ccc# 8aa 8cc#\
8aJ 8f# 8c#\	8ccc#J 8aa 8cc#\
=21	=21
!LO:TX:t=P:problem:mixed beam	!
8FFF#/L	8r
8A 8D\	8ddL 8a 8d\
8A\	8aa 8a\
8D\J	8ddJ 8d\
=22	=22
8AL 8F# 8C#\	8cc#L 8a 8c#\
8a 8f# 8c#\	8ccc# 8aa 8cc#\
8a 8f# 8c#\	8ccc# 8aa 8cc#\
8aJ 8f# 8c#\	8ccc#J 8aa 8cc#\
=23	=23
8BB 8BBB/	8eeeL 8gg# 8ee\
8G#L 8D\	8ddd 8dd\
8d 8F#\	8ccc# 8cc#\
8G#J 8D\	8bbJ 8b\
=24	=24
!LO:TX:t=P:problem:mixed beam	!
8CC#/L	8bbL 8ff# 8b\
8A 8C#\	8aa 8a\
8c# 8F#\	8gg# 8g#\
8AJ 8C#\	8ff#J 8f#\
!!LO:PB:g=original
=25	=25
!LO:TX:t=P:problem:mixed beam	!
8CC#/L	8ee#XL 8e#X\
8B 8C#\	8gg# 8g#\
8e#X 8B\	8ddd 8dd\
8BJ 8C#\	8ccc#J 8cc#\
=26	=26
!LO:TX:t=P:problem:mixed beam	!
8FF#/L	8ff#L 8f#\
8A 8C#\	8aa 8a\
8f# 8A\	8bb#X 8b#X\
8AJ 8C#\	8ccc#J 8cc#\
=27	=27
!LO:TX:t=P:problem:mixed beam	!
8BBB/L	8eeeL 8gg# 8ee\
8d 8D\	8ddd 8dd\
8f# 8G# 8F#\	8.fff# 8.gg# 8.ff#\
8dJ 8D\	.
.	16bbJk 16b\
=28	=28
!LO:TX:t=P:problem:mixed beam	!
8CC#/L	8bbL 8ff# 8b\
8A 8C#\	8aa 8a\
8c# 8F#\	8ccc# 8cc#\
8AJ 8C#\	8ff#J 8f#\
=29	=29
!LO:TX:t=P:problem:mixed beam	!
8CC#/L	8aaL 8dd 8a\
8F# 8AA\	8ff# 8f#\
8B#X 8D\	8dd 8d\
8F#J 8AA\	8b#XJ 8B#X\
=30	=30
!LO:TX:t=P:problem:mixed beam	!
8CC#L 8CCC#/	8b#XL 8B#X\
8E#X 8BB\	8cc# 8c#\
8c# 8C#\	8aa 8cc# 8a\
8E#J 8BB\	8gg#J 8cc# 8g#\
=31	=31
4FF# 4FFF#/	8ff#L 8cc# 8a 8f#\
.	16fff#L 16ccc# 16aa'\
.	16fff#JJ 16ccc# 16aa'\
*clefG2	*
8ff# 8cc# 8a 8f#\	16fff#LL 16ccc# 16aa\
.	16ff#\
8r	16ccc# 16aa 16ff#'\
.	16ccc#JJ 16aa 16ff#'\
!!LO:LB:g=original
=32	=32
8cc# 8a 8f# 8c#/	16ccc#LL 16aa 16ff#\
.	16cc#\
8r	16aa 16ff# 16cc#\
.	16aa 16ff# 16cc#\
8a 8f# 8c# 8A/	16aa 16ff# 16cc#\
.	16a\
8r	16ff# 16cc# 16a\
.	16ff#JJ 16cc# 16a\
*clefF4	*
=33	=33
8f# 8c# 8A 8F#\	16ff#LL 16cc# 16a\
.	16f#\
8r	16cc# 16a 16f#\
.	16cc# 16a 16f#\
8c# 8A 8F# 8C#\	16cc# 16a 16f#\
.	16c#\
8r	16a 16f# 16c#\
.	16aJJ 16f# 16c#\
=34	=34
8A 8F# 8C# 8AA\	16aLL 16f# 16c#\
.	16A\
8r	16f# 16c# 16A\
.	16f#JJ 16c# 16A\
8F# 8C# 8AA 8FF#\	16f#LL 16c# 16A/
.	16F#/
8r	16c# 16A 16F#/
.	16c#JJ 16A 16F#/
=35	=35
8BB 8BBB/	16r
.	16G#\LL
8r	16a 16f# 16d\
.	16g#\JJ
8f# 8d 8G# 8F#\	16r
.	16ddLL 16g# 16f# 16d\
8r	16dd 16g# 16f# 16d\
.	16ddJJ 16g# 16f# 16d\
=36	=36
8BB 8BBB/	16r
.	16G#\LL
8r	16a 16f# 16d\
.	16g#\JJ
8f# 8d 8G# 8F#\	16r
.	16ddLL 16g# 16f# 16d\
8r	16dd 16g# 16f# 16d\
.	16ddJJ 16g# 16f# 16d\
=37	=37
8C# 8CC#\	16r
.	16G#\LL
8r	16a 16f# 16c#\
.	16g#\JJ
!!LO:LB:g=original
8f# 8c# 8G# 8F#\	16r
.	16cc#LL 16g# 16f# 16c#\
8r	16cc# 16g# 16f# 16c#\
.	16cc#JJ 16g# 16f# 16c#\
=38	=38
8CC# 8CCC#/	16r
.	16G#\LL
8r	16a 16e#X 16c#\
.	16g#\JJ
8e#X 8c# 8B 8G# 8E#X\	16r
.	16cc#LL 16g# 16e# 16c#\
8r	16cc# 16g# 16e# 16c#\
.	16cc#JJ 16g# 16e# 16c#\
=39	=39
!	!LO:TX:t=P:problem:mixed beam
8FF# 8FFF#/	8f#L 8c# 8A 8F#/
8r	16fff#L 16ccc# 16aa\
.	16fff#JJ 16ccc# 16aa\
*clefG2	*
8ff# 8cc# 8a 8f#\	16fff#LL 16ccc# 16aa\
.	16ff#\
8r	16ccc# 16aa 16ff#\
.	16ccc#JJ 16aa 16ff#\
=40	=40
8cc# 8a 8f# 8c#\	16ccc#LL 16aa 16ff#\
.	16cc#\
8r	16aa 16ff# 16cc#\
.	16aa 16ff# 16cc#\
8a 8f# 8c# 8A/	16aa 16ff# 16cc#\
.	16a\
8r	16ff# 16cc# 16a\
.	16ff#JJ 16cc# 16a\
*clefF4	*
=41	=41
8f# 8c# 8A 8F#\	16ff#LL 16cc# 16a\
.	16f#\
8r	16cc# 16a 16f#\
.	16cc# 16a 16f#\
8c# 8A 8F# 8C#\	16cc# 16a 16f#\
.	16c#\
8r	16a 16f# 16c#\
.	16aJJ 16f# 16c#\
=42	=42
8A 8F# 8C# 8AA\	16aLL 16f# 16c#/
.	16A/
8r	16f# 16c# 16A/
.	16f# 16c# 16A/
8F# 8C# 8AA 8FF#\	16f# 16c# 16A/
.	16F#/
8r	16c# 16A 16F#/
.	16c#JJ 16A 16F#/
!!LO:LB:g=original
=43	=43
8BB 8BBB/	16r
.	16G#/LL
8r	16a 16f# 16d/
.	16g#/JJ
8f# 8d 8G# 8F#\	16r
.	16ddLL 16g# 16f# 16d/
8r	16dd 16g# 16f# 16d/
.	16ddJJ 16g# 16f# 16d/
=44	=44
8BB 8BBB/	16r
.	16G#/LL
8r	16a 16f# 16d/
.	16g#/JJ
8f# 8d 8G# 8F#\	16r
.	16ddLL 16g# 16f# 16d/
8r	16dd 16g# 16f# 16d/
.	16ddJJ 16g# 16f# 16d/
=45	=45
8C# 8CC#/	16r
.	16G#/LL
8r	16a 16f# 16c#/
.	16g#/JJ
8f# 8c# 8G# 8F#\	16r
.	16cc#LL 16g# 16f# 16c#/
8r	16cc# 16g# 16f# 16c#/
.	16cc#JJ 16g# 16f# 16c#/
=46	=46
8C# 8CC#/	16r
.	16G#/LL
8r	16a 16e#X 16c#/
.	16g#/JJ
8e#X 8c# 8B 8G# 8E#X\	16r
.	16cc#LL 16g# 16e# 16c#/
8r	16cc# 16g# 16e# 16c#/
.	16cc#JJ 16g# 16e# 16c#/
=47	=47
8FF# 8FFF#/	8f# 8c# 8A 8F#/
8r	8r
8AA\L	16f#\LL
.	16ff# 16cc#\
8aJ 8c# 8A\	16ff# 16cc#\
.	16f#\JJ
=48	=48
8BB\L	16g#\LL
.	16gg# 16dd\
8bJ 8d 8B\	16gg# 16dd\
.	16g#\
8Cn\L	16a\
.	16aa 16dd#X\
8ccnJ 8d#X 8cn\	16aa 16dd#\
.	16a\JJ
!!LO:LB:g=original
=49	=49
!LO:TX:t=P:problem:mixed beam	!
8EE/L	16g#\LL
.	16gg# 16dd\
8bJ 8d 8B\	16gg# 16dd\
.	16g#\
8E\L	16f#\
.	16ff# 16dd\
8aJ 8d 8A\	16ff# 16dd\
.	16f#\JJ
=50	=50
8E\L	16e\LL
.	16ee 16dd\
8g#J 8d 8G#\	16ee 16dd\
.	16e\
*clefG2	*
8E/L	16dd\
.	16ddd 16gg#\
8ddJ 8g# 8d/	16ddd 16gg#\
.	16dd\JJ
*clefF4	*
=51	=51
8AA\L	16cc#\LL
.	16ccc# 16aa\
*clefG2	*
8cc#J 8a 8c#\	16ccc# 16aa\
.	16cc#\
!LO:TX:t=P:problem:mixed beam	!
8E/L	16cc#\
.	16ccc# 16gg#\
8eeJ 8g# 8e\	16ccc# 16gg#\
.	16cc#\JJ
=52	=52
!LO:TX:t=P:problem:mixed beam	!
8F#/L	16dd#X\LL
.	16ddd#X 16aa\
8ff#J 8a 8f#\	16ddd# 16aa\
.	16dd#\
!LO:TX:t=P:problem:mixed beam	!
8F##X/L	16ee\
.	16eee 16aa#X\
8ff##XJ 8a#X 8f##X\	16eee 16aa#\
.	16ee\JJ
*clefF4	*
=53	=53
8GG#\L	16dd#X\LL
.	16ddd#X 16aa\
*clefG2	*
8ff#XJ 8a 8f#\	16ddd# 16aa\
.	16dd#\
!LO:TX:t=P:problem:mixed beam	!
8G#/L	16cc#\
.	16ccc# 16gg#\
8eeJ 8g# 8e\	16ccc# 16gg#\
.	16cc#\JJ
=54	=54
8G#/L	16b#X\LL
.	16bb#X 16gg#\
8dd#XJ 8g# 8d#X/	16bb# 16gg#\
.	16b#\JJ
!LO:TX:t=P:problem:mixed beam	!
8G#/L	16gg#\LL
.	16ggg# 16bb#\
8ff#J 8b#X 8f#\	16ggg# 16bb#\
.	16gg#\JJ
*clefF4	*
!!LO:LB:g=original
=55	=55
4E#X 4GG# 4CC#\	16gg#\LL
.	16ggg# 16eee#X 16ccc#\
.	16ggg# 16eee# 16ccc#\
.	16ee#X\
[4g# [4e#X [4c# [4G#\	16ee#\
.	16eee# 16ccc# 16gg#\
.	16eee# 16ccc# 16gg#\
.	16cc#\JJ
=56	=56
*2\right	*
2g#] 2e#] 2c#] 2G#\]	16cc#\LL
.	16ccc# 16gg# 16ee#X\
.	16ccc# 16gg# 16ee#\
.	16g#\
.	16g#\
.	16gg# 16ee# 16cc#\
.	16gg# 16ee# 16cc#\
.	16e#X\JJ
=57	=57
4CC#/	16e#XLL 16c#'/
.	16f# 16d'/
.	16f# 16d'/
.	16f# 16d'/
4A 4C#\	16f# 16d'/
.	16a 16f#'/
.	16a 16f#'/
.	16aJJ 16f#'/
=58	=58
4d 4F#\	16aLL 16f#'/
.	16dd 16a'/
.	16dd 16a'/
.	16dd 16a'/
4f# 4B#X\	16dd 16a'/
.	16ff# 16dd'/
.	16ff# 16dd'/
.	16ff#JJ 16dd'/
=59	=59
4E#X 4C# 4GG# 4CC#/	8ee#X 8cc#\
.	16ggg#LL 16eee#X 16ccc#\
.	16ee#\
[4g# [4e#X [4c# [4G#\	16ee#\
.	16eee# 16ccc# 16gg#\
.	16eee# 16ccc# 16gg#\
.	16cc#\JJ
=60	=60
2g#] 2e#] 2c#] 2G#\]	16cc#\LL
.	16ccc# 16gg# 16ee#X\
.	16ccc# 16gg# 16ee#\
.	16g#\
.	16g#\
.	16gg# 16ee# 16cc#\
.	16gg# 16ee# 16cc#\
.	16e#X\JJ
!!LO:PB:g=original
=61	=61
4C# 4CC#/	16g#LL 16e#X\
.	16a 16f#\
.	16a 16f#\
.	16a 16f#\
4d 4F#\	16a 16f#\
.	16dd 16a\
.	16dd 16a\
.	16ddJJ 16a\
=62	=62
4f# 4A\	16ddLL 16a\
.	16ff# 16dd\
.	16ff# 16dd\
.	16ff# 16dd\
4a 4B#X\	16ff# 16dd\
.	16aa 16ff#\
.	16aa 16ff#\
.	16aaJJ 16ff#\
=63	=63
8e#XL 8c# 8G# 8C#\	8gg#L 8ee#X\
8G# 8E#X\	16e#XL 16c#\
.	16cc# 16g#\
8c# 8G#\	16ee# 16cc#\
.	16g# 16e#\
8e#J 8c#\	16cc# 16g#\
.	16gg#JJ 16ee#\
*clefG2	*
=64	=64
8g#L 8e#X/	16ccc#LL 16gg#\
.	16ee#X 16cc#\
8cc# 8g#/	16gg# 16ee#\
.	16eee#X 16ccc#\
8ee#y 8cc#/	16ggg# 16eee#\
.	16ccc# 16gg#\
8gg#J 8ee#/	16eee# 16ccc#\
*	*8va
.	16cccc#JJ 16ggg#\
=65	=65
8ccc#L 8gg#\	16eeee#XLL 16cccc#\
.	16ggg# 16eee#X\
8gg# 8ee#X\	16cccc# 16ggg#\
.	16gggg# 16eeee#\
8cc# 8g#\	16eeee# 16cccc#\
.	16ggg# 16eee#\
8g#J 8e#X\	16cccc# 16ggg#\
.	16gggg#JJ 16eeee#\
*clefF4	*
=66	=66
8c#L 8G#\	16eeee#XLL 16cccc#\
.	16ggg# 16eee#X\
8G#J 8E#X\	16cccc# 16ggg#\
.	16gggg#JJ 16eeee#\
8C#L 8GG#\	16eeee#LL 16cccc#\
.	16ggg# 16eee#\
8GG#J 8EE#X\	16cccc# 16ggg#\
.	16gggg#JJ 16eeee#\
!!LO:LB:g=original
=67	=67
16CC#LL 16CCC#/	16eeee#X 16cccc#\
*	*X8va
16DD 16DDD/	16r
16DD 16DDD/	8r
16DDJJ 16DDD/	.
*	*clefF4
16DDLL 16DDD/	16D\LL
16DD#X 16DDD#X/	16D#X\
16DD# 16DDD#/	16D#\
16DD#JJ 16DDD#/	16D#\JJ
=68	=68
16DD#XLL 16DDD#X/	16D#X\LL
16EE 16EEE/	16E\
16EE 16EEE/	16E\
16EE 16EEE/	16E\
16EE 16EEE/	16E\
16EE#X 16EEE#X/	16E#X\
16EE# 16EEE#/	16E#\
16EE#JJ 16EEE#/	16E#\JJ
*	*clefG2
=69	=69
16EE#XLL 16EEE#X/	16e#XLL 16E#X/
16FF# 16FFF#/	16f# 16F#/
16FF# 16FFF#/	16f# 16F#/
16FF##X 16FFF##X/	16f##X 16F##X/
16FF## 16FFF##/	16f## 16F##/
16GG# 16GGG#/	16g# 16G#/
!LO:N:vis=16	!
32GG#L 32GGG#/	16g# 16G#/
!LO:N:vis=16	!
32GG#J 32GGG#/	.
16AAJJ 16AAA/	16aJJ 16A/
=70	=70
16AALL 16AAA/	16aLL 16A/
16AA#X 16AAA#X/	16a#X 16A#X/
16AA# 16AAA#/	16a# 16A#/
16BB 16BBB/	16b 16B/
16BB 16BBB/	16b 16B/
16BB#X 16BBB#X/	16b#X 16B#X/
16BB# 16BBB#/	16b# 16B#/
16C#JJ 16CC#/	16cc#JJ 16c#/
=71	=71
!LO:TX:t=P:problem:mixed beam	!
16FFF#/LL	16r
16A 16F# 16C#\	16cc#LL 16a 16c#\
16BB#X\	16b#X 16B#X\
16C#\	16cc# 16c#\
16BB#\	16b# 16B#\
16C#\	16cc# 16c#\
16D\	16dd 16d\
16C#\JJ	16cc#JJ 16c#\
!!LO:LB:g=original
=72	=72
8AL 8F# 8C#\	8cc#L 8a 8c#\
8a 8f# 8c#\	8ccc# 8aa 8cc#\
8a 8f# 8c#\	8ccc# 8aa 8cc#\
8aJ 8f# 8c#\	8ccc#J 8aa 8cc#\
=73	=73
!LO:TX:t=P:problem:mixed beam	!
16FFF#/LL	16r
16A 16D'\	16ddLL 16a 16d'\
16E'\	16ee 16e'\
16D'\	16dd 16d'\
16C#'\	16cc# 16c#'\
16D'\	16dd 16d'\
16E'\	16ee 16e'\
16F#'\JJ	16ff#JJ 16f#'\
=74	=74
8AL 8F# 8C#\	8cc#L 8a 8c#\
8a 8f# 8c#\	8ccc# 8aa 8cc#\
8a 8f# 8c#\	8ccc# 8aa 8cc#\
8aJ 8f# 8c#\	8ccc#J 8aa 8cc#\
=75	=75
8BB 8BBB/	8eeeL 8gg# 8ee\
8G#L 8D\	8ddd 8dd\
8d 8F#\	8.ccc# 8.cc#\
8G#J 8D\	.
.	16bbJk 16b\
=76	=76
8C# 8CC#/	8bbL 8ff# 8b\
8AL 8C#\	8aa 8a\
8c# 8F#\	8gg# 8g#\
8AJ 8C#\	8ff#J 8f#\
=77	=77
8CC#/	8ee#XL 8e#X\
8G#L 8C#\	8gg# 8g#\
8e#X 8G#\	8ddd 8dd\
8cc#J 8e#\	8ccc#J 8cc#\
!!LO:LB:g=original
=78	=78
8f#L 8G#\	8bb#XL 8b#X\
8b#XJ 8f#\	8ggg# 8gg#\
*clefG2	*
4cc# 4e#X 4c#/	8ccc#\
.	8cccc#J 8ccc#\
*clefF4	*
=79	=79
16FF# 16FFF#/	16r
16ALL 16F# 16C#\	16cc#LL 16a 16c#\
16BB#X\	16b#X 16B#X\
16C#\	16cc# 16c#\
16BB#\	16b# 16B#\
16C#\	16cc# 16c#\
16D\	16dd 16d\
16C#\JJ	16cc#JJ 16c#\
=80	=80
8AL 8F# 8C#\	8cc#L 8a 8c#\
8a 8f# 8c#\	8ccc# 8aa 8cc#\
8a 8f# 8c#\	8ccc# 8aa 8cc#\
8aJ 8f# 8c#\	8ccc#J 8aa 8cc#\
=81	=81
!LO:TX:t=P:problem:mixed beam	!
16FFF#/LL	16r
16A 16D\	16ddLL 16a 16d\
16E\	16ee 16e\
16D\	16dd 16d\
16C#\	16cc# 16c#\
16D\	16dd 16d\
16A\	16aa 16a\
16D\JJ	16ddJJ 16d\
=82	=82
8AL 8F# 8C#\	8cc#L 8a 8c#\
8a 8f# 8c#\	8ccc# 8aa 8cc#\
8a 8f# 8c#\	8ccc# 8aa 8cc#\
8aJ 8f# 8c#\	8ccc#J 8aa 8cc#\
!!LO:LB:g=original
=83	=83
!LO:TX:t=P:problem:mixed beam	!
8BBL 8BBB/	8eeeL 8gg# 8ee\
8G# 8D\	8ddd 8dd\
8d 8F#\	8.ccc# 8.cc#\
8G#J 8D\	.
.	16bbJk 16b\
=84	=84
8C# 8CC#/	8bbL 8ff# 8b\
8AL 8C#\	8aa 8a\
8c# 8F#\	8gg# 8g#\
8AJ 8C#\	8ff#J 8f#\
=85	=85
!LO:TX:t=P:problem:mixed beam	!
8CC#/L	8ee#XL 8e#X\
8B 8C#\	8gg# 8g#\
8e#X 8G#\	8ddd 8dd\
8BJ 8C#\	8ccc#J 8cc#\
=86	=86
8FF#\L	8ff#L 8f#\
8A 8C#\	8aa 8a\
8f# 8A\	8bb#X 8b#X\
8AJ 8C#\	8ccc#J 8cc#\
=87	=87
!LO:TX:t=P:problem:mixed beam	!
8BBL 8BBB/	8eeeL 8gg# 8ee\
8d 8D\	8ddd 8dd\
!	!LO:N:n=3:vis=8
8f# 8G# 8F#\	8.fff# 8.gg# 8.ff#\
8dJ 8D\	.
.	16bbJk 16b\
=88	=88
!LO:TX:t=P:problem:mixed beam	!
8CC#L/	8bbL 8ff# 8b\
8A 8C#\	8aa 8a\
8c# 8F#\	8.ccc# 8.cc#\
8AJ 8C#\	.
.	16ff#Jk 16f#\
!!LO:LB:g=original
=89	=89
!LO:TX:t=P:problem:mixed beam	!
8CC#/L	8aaL 8dd 8a\
8F# 8AA\	8ff# 8f#\
8B#X 8D\	8dd 8d\
8F#J 8AA\	8b#XJ 8B#X\
=90	=90
!LO:TX:t=P:problem:mixed beam	!
8CC#L 8CCC#/	8b#XL 8B#X\
8E#X 8BB\	8cc# 8c#\
8c# 8C#\	8aa 8cc# 8a\
8E#J 8BB\	8gg#J 8g#\
=91	=91
4FF# 4FFF#/	4ff# 4cc# 4a 4f#\
8AA\L	16ff#LL 16f#'\
.	16ee#X 16e#X'\
8c#J 8A\	16ff# 16f#'\
.	16ff#JJ 16f#'\
=92	=92
8BB\L	16ggnLL 16gn'\
.	16ff# 16f#'\
8dJ 8B\	16gg 16g'\
.	16gg 16g'\
8BB\L	16gg#X 16g#X'\
.	16ff##X 16f##X'\
8e#XJ 8c# 8B\	16gg# 16g#'\
.	16gg#JJ 16g#'\
=93	=93
8a 8f# 8c# 8A\	8ccc# 8ff# 8cc#'\
8r	8r
8AA\L	16ff#LL 16f#'\
.	16ee#X 16e#X'\
8c#J 8A\	16ff# 16f#'\
.	16ff#JJ 16f#'\
=94	=94
8BB\L	16ggnLL 16gn'\
.	16ff# 16f#'\
8dJ 8B\	16gg 16g'\
.	16gg 16g'\
8BB\L	16gg#X 16g#X'\
.	16ff##X 16f##X'\
8e#XJ 8c# 8B\	16gg# 16g#'\
.	16gg#JJ 16g#'\
!!LO:PB:g=original
=95	=95
4a 4f# 4c# 4A\	4ccc# 4ff# 4cc#\
8AL 8AA\	16fff#LL 16ccc# 16ff#\
.	16cc#\JJ
8cc#J 8f# 8c#\	16ryy
.	16fff# 16ccc# 16ff#\
=96	=96
8G#L 8GG#\	16eeeLL 16bb 16ee\
.	16b\JJ
8bJ 8e 8B\	16ryy
.	16eee 16bb 16ee\
8F#L 8FF#\	16dddLL 16aa 16dd\
.	16a\JJ
8aJ 8d 8A\	16ryy
.	16ddd 16aa 16dd\
=97	=97
8EL 8EE\	16ccc#LL 16gg# 16cc#\
.	16g#\JJ
8g#J 8c# 8G#\	16ryy
.	16ccc# 16gg# 16cc#\
!LO:TX:t=P:problem:mixed beam	!
8DL 8DD/	16bbLL 16ff# 16b\
.	16f#\JJ
8f#J 8B 8F#\	16ryy
.	16bb 16ff# 16b\
=98	=98
!LO:TX:t=P:problem:mixed beam	!
8C#L 8CC#/	16aaLL 16ff# 16a\
.	16f#\JJ
8f#J 8A 8F#\	16ryy
.	16aa 16ff# 16a\
!LO:TX:t=P:problem:mixed beam	!
8C#L 8CC#/	16gg#LL 16ee#X 16g#\
.	16e#X\JJ
8e#XJ 8c# 8B 8E#X\	16ryy
.	16gg# 16ee# 16g#\
=99	=99
4FF# 4FFF#/	4ff# 4a 4f#\
8AA\L	16ff#LL 16f#'\
.	16ee#X 16e#X'\
8c#J 8A\	16ff# 16f#'\
.	16ff#JJ 16f#'\
=100	=100
8BB\L	16ggnLL 16gn'\
.	16ff# 16f#'\
8dJ 8B\	16gg 16g'\
.	16ggJJ 16g'\
8BB\L	16gg#XLL 16g#X'\
.	16ff##X 16f##X'\
8e#XJ 8c# 8B\	16gg# 16g#'\
.	16gg#JJ 16g#'\
!!LO:LB:g=original
=101	=101
8a 8f# 8c# 8A\	8ccc# 8ff# 8cc#\
8r	8r
8AA\L	16ff#LL 16f#'\
.	16ee#X 16e#X'\
8c#J 8A\	16ff# 16f#'\
.	16ff#JJ 16f#'\
=102	=102
8BB\L	16ggnLL 16gn'\
.	16ff# 16f#'\
8dJ 8B\	16gg 16g'\
.	16gg 16g'\
8BB\L	16gg#X 16g#X'\
.	16ff##X 16f##X'\
8e#XJ 8c# 8B\	16gg# 16g#'\
.	16gg#JJ 16g#'\
=103	=103
4a 4f# 4c# 4A\	4ccc# 4ff# 4cc#\
!LO:TX:t=P:problem:mixed beam	!
8AA/L	16fff#LL 16ccc# 16ff#\
.	16cc#\JJ
8cc#J 8f# 8c#\	16ryy
.	16fff# 16ccc# 16ff#\
=104	=104
!LO:TX:t=P:problem:mixed beam	!
8GG#/L	16eeeLL 16bb 16ee\
.	16b\JJ
8bJ 8e 8B\	16ryy
.	16eee 16bb 16ee\
!LO:TX:t=P:problem:mixed beam	!
8F#L 8FF#/	16dddLL 16aa 16dd\
.	16a\JJ
8aJ 8d 8A\	16ryy
.	16ddd 16aa 16dd\
=105	=105
!LO:TX:t=P:problem:mixed beam	!
8EL 8EE/	16ccc#LL 16gg# 16cc#\
.	16g#\JJ
8g#J 8c# 8G#\	16ryy
.	16ccc# 16gg# 16cc#\
!LO:TX:t=P:problem:mixed beam	!
8DL 8DD/	16bbLL 16ff# 16b\
.	16f#\JJ
8f#J 8B 8F#\	16ryy
.	16bb 16ff# 16b\
=106	=106
!LO:TX:t=P:problem:mixed beam	!
8C#L 8CC#/	16aaLL 16ff# 16a\
.	16f#\JJ
8f#J 8A 8F#\	16ryy
.	16aa 16ff# 16a\
!LO:TX:t=P:problem:mixed beam	!
8C#L 8CC#/	16gg#LL 16ee#X 16g#\
.	16e#X\JJ
8e#XJ 8c# 8B 8E#X\	16ryy
.	16gg# 16ee# 16g#\
!!LO:LB:g=original
=107	=107
4FF# 4FFF#/	4ff# 4a 4f#\
8AL 8E 8AA\	16aaLL 16cc# 16a\
.	16e\JJ
16c#L 16A\	8ryy
16e\JJ	.
=108	=108
8AL 8E 8AA\	16aaLL 16cc# 16a\
.	16e\JJ
16c#L 16A\	8ryy
16e\JJ	.
8AL 8E 8AA\	16aaLL 16cc# 16a\
.	16e\JJ
16c#L 16A\	8ryy
16e\JJ	.
=109	=109
8E 8EE/	8g# 8d 8G#/
*clefG2	*
8ffnL 8dd 8fn\	16r
.	8fffnL 8gg# 8ffn\|
8dd 8f 8d\	.
.	8ddd 8ff 8dd\|
8bJ 8d 8B\	.
.	16bbJk 16dd 16b\|
*clefF4	*
=110	=110
8g#L 8fn 8G#\	16r
.	8gg#L 8b 8g#\|
8f 8G# 8Fn\	.
.	8ffn 8g# 8fn\|
8e 8G# 8E\	.
.	8ee 8g# 8e\|
8dJ 8G# 8D\	.
.	16ddJk 16g# 16d\|
=111	=111
4AA 4AAA'>/	4cc# 4a 4c#'\
8AL 8E 8AA\	16aaLL 16cc# 16a\
.	16e\JJ
16c#L 16A\	8ryy
16e\JJ	.
=112	=112
8AL 8E 8AA\	16aaLL 16cc# 16a\
.	16e\JJ
16c#L 16A\	8ryy
16e\JJ	.
8AL 8E 8AA\	16aaLL 16cc# 16a\
.	16e\JJ
16c#L 16A\	8ryy
16e\JJ	.
!!LO:LB:g=original
=113	=113
8E 8EE/	8g# 8d 8G#/
*clefG2	*
8ffnL 8dd 8fn\	16r
.	8fffnL 8gg# 8ffn\|
8dd 8b 8d\	.
.	8ddd 8ff 8dd\|
8bJ 8g# 8B\	.
.	16bbJk 16dd 16b\|
*clefF4	*
=114	=114
8g#L 8fn 8G#\	16r
.	8gg#L 8b 8g#\|
8f 8G# 8Fn\	.
.	8ffn 8g# 8fn\|
8e 8G# 8E\	.
.	8ee 8g# 8e\|
8dJ 8G# 8D\	.
.	16ddJk 16g# 16d\|
=115	=115
4AA 4AAA'>/	4cc# 4a 4c#|\
8c#L 8G# 8C#\	16ccc#LL 16ee 16cc#\
.	16g#\JJ
16eL 16c#\	8ryy
16g#\JJ	.
=116	=116
8c#L 8G# 8C#\	16ccc#LL 16ee 16cc#\
.	16g#\JJ
16eL 16c#\	8ryy
16g#\JJ	.
8c#L 8G# 8C#\	16ccc#LL 16ee 16cc#\
.	16g#\JJ
16eL 16c#\	8ryy
16g#\JJ	.
=117	=117
8G# 8GG#\	8b#X 8f# 8B#X/
*clefG2	*
8aaL 8ff# 8a\	16r
.	8aaaL 8bb#X 8aa\|
8ff# 8dd#X 8f#\	.
.	8fff# 8aa 8ff#\|
8dd#J 8b#X 8d#X\	.
.	16ddd#XJk 16ff# 16dd#X\|
*clefF4	*
=118	=118
8b#XL 8a 8B#X\	16r
.	8bb#XL 8dd#X 8b#X\|
8a 8B# 8A\	.
.	8aa 8b# 8a\|
8g# 8B# 8G#\	.
.	8gg# 8b# 8g#\|
8f#J 8B# 8F#\	.
.	16ff#Jk 16b# 16f#\|
!!LO:LB:g=original
=119	=119
8c#L 8G# 8C#\	16r
.	8eeL 8cc# 8e\
8cc#J 8g# 8e\	.
.	16ccc#Jk 16ee 16cc#\
4ryy	16ccc#LL 16ee 16cc#\
.	16g#JJ 16e\
.	16e<LL 16c#<\
.	16g#<\JJ
=120	=120
8G#L 8GG#\	16r
.	8dd#XL 8b#X 8d#X\
8b#XJ 8g# 8d#X\	.
.	16bb#XJk 16dd# 16b#\
4ryy	16bb#LL 16dd# 16b#\
.	16g#JJ 16d#\
.	16d#<LL 16B#X<\
.	16g#<\JJ
=121	=121
8BL 8BB\	16r
.	8dd#XL 8bn 8d#X\
8bnJ 8f# 8d#X\	.
.	16bbnJk 16dd# 16b\
4ryy	16bbLL 16dd# 16b\
.	16f#JJ 16d#\
.	16d#<LL 16B<\
.	16f#<\JJ
=122	=122
8F#L 8FF#\	16r
.	8cc#L 8a#X 8c#\
8a#XJ 8f# 8c#\	.
.	16aa#XJk 16cc# 16a#\
4ryy	16aa#LL 16cc# 16a#\
.	16f#JJ 16c#\
.	16c#<LL 16A#X<\
.	16f#<\JJ
=123	=123
8AL 8AA\	16r
.	8cc#L 8an 8c#\
8aJ 8e 8c#\	.
.	16aaJk 16cc# 16a\
4ryy	16aaLL 16cc# 16a\
.	16eJJ 16c#\
.	16c#<LL 16A<\
.	16e<\JJ
=124	=124
!LO:TX:t=P:problem:mixed beam	!
8DL 8DD/	16r
.	16ddLL 16fn\
8fnJ 8d 8A\	16ffn 16a\
.	16aaJJ 16dd\
!!LO:LB:g=original
!LO:TX:t=P:problem:mixed beam	!
8EL 8EE/	16gg#LL 16dd\
.	16bb\
8g#J 8d 8G#\	16ddd\
.	16gg#\JJ
=125	=125
8AL 8E 8AA\	16r
.	8cc#L 8a 8c#\
8aJ 8e 8c#\	.
.	16aaJk 16cc# 16a\
4ryy	16aaLL 16cc# 16a\
.	16eJJ 16c#\
.	16c#<LL 16A<\
.	16e<\JJ
=126	=126
8DL 8DD\	16r
.	16ddLL 16fn\
8fnJ 8d 8A\	16ffn 16a\
.	16aaJJ 16dd\
8EL 8EE\	16gg#LL 16dd\
.	16bb\
8g#J 8d 8G#\	16ddd\
.	16gg#\JJ
=127	=127
!LO:TX:t=P:problem:mixed beam	!
8AAL 8AAA/	16aaLL 16a'\
.	16ee 16cc#'\
8aJ 8c#\	16ee 16cc#'\
.	16ee 16cc#'\
8E\L	16ee 16cc#'\
.	16dd#X 16b#X'\
8aJ 8c#\	16dd# 16b#'\
.	16dd#JJ 16b#'\
=128	=128
8A\L	16dd#XLL 16b#X'\
.	16ee 16cc#'\
8aJ 8c#\	16ee 16cc#'\
.	16ee 16cc#'\
8A\L	16ee 16cc#'\
.	16ffn 16ccn'\
8aJ 8fn 8e-X\	16ff 16cc'\
.	16ffJJ 16cc'\
=129	=129
!LO:TX:t=P:problem:mixed beam	!
8BBB-X/L	16ffnLL 16ccn'\
.	16ff 16dd'\
8b-XJ 8d\	16ff 16dd'\
.	16ff 16dd'\
8Fn\L	16ff 16dd'\
.	16bb-X 16dd'\
8b-J 8d\	16bb- 16dd'\
.	16dddJJ 16dd'\
!!LO:PB:g=original
=130	=130
!LO:SIC:v:s=8B-\L	!
8B\L	16dddLL 16dd\
.	16fffn 16dd\
8b-XJ 8d\	16fff 16dd\
.	16ddd 16dd\
8Fn\L	16ddd 16dd\
.	16bb-X 16dd\
8b-J 8d\	16bb- 16dd\
.	16ffnJJ 16dd\
=131	=131
!LO:TX:t=P:problem:mixed beam	!
8BBB-X/L	16r
.	16ffnLL 16dd\
8b-XJ 8d\	16ff 16dd\
.	16ff 16dd\
8Fn\L	16ff 16dd\
.	16ee 16cc#\
8b-J 8d\	16ee 16cc#\
.	16eeJJ 16cc#\
=132	=132
8B-X\L	16eeLL 16cc#\
.	16ffn 16dd\
8b-XJ 8d\	16ff 16dd\
.	16ff 16dd\
8A#X\L	16ff 16dd\
.	16ff#X 16cc#\
8a#XJ 8f# 8e\	16ff# 16cc#\
.	16ff#JJ 16cc#\
=133	=133
!LO:TX:t=P:problem:mixed beam	!
8BBBn/L	16ff#LL 16dd\
.	16ff# 16dd#X\
8bJ 8d#X\	16ff# 16dd#\
.	16ff# 16dd#\
8F#\L	16ff# 16dd#\
.	16bb 16dd#\
8bJ 8d#\	16bb 16dd#\
.	16ddd#XJJ 16dd#\
=134	=134
8B\L	16ddd#XLL 16dd#X\
.	16fff# 16dd#\
8bJ 8d#X\	16fff# 16dd#\
.	16ddd# 16dd#\
8F#\L	16ddd# 16dd#\
.	16bb 16dd#\
8bJ 8d#\	16bb 16dd#\
.	16ff#JJ 16dd#\
=135	=135
8BB\L	16ff#LL 16dd#X\
.	16bb 16dd#\
8bJ 8d#X\	16bb 16dd#\
.	16bbJJ 16dd#\
8E#X\L	16bbLL 16dd#\
.	16aa#X 16dd#\
8g##XJ 8d#\	16aa# 16dd#\
.	16gg##XJJ 16dd#\
!!LO:LB:g=original
=136	=136
!LO:TX:t=P:problem:mixed beam	!
8AA#X/L	16aa#XLL 16cc##X\
.	16ccc##X 16cc##\
8a#XJ 8c##X\	16eee#X 16cc##\
.	16aa# 16cc##\
8E\L	16gg# 16ddn\
.	16bb 16dd\
8g#J 8d\	16eee# 16dd\
.	16gg#JJ 16dd\
=137	=137
!LO:TX:t=P:problem:mixed beam	!
8AA/L	16eeLL 16cc#\
.	16aa 16cc#\
8aJ 8c#\	16aa 16cc#\
.	16aa 16cc#\
8D#X\L	16aa 16cc#\
.	16gg# 16cc#\
8f##XJ 8c#\	16gg# 16cc#\
.	16ff##XJJ 16cc#\
=138	=138
8GG#\L	16gg#LL 16b#X\
.	16bb#X 16b#\
8g#J 8B#X\	16ddd#X 16b#\
.	16gg# 16b#\
8D\L	16ff# 16ccn\
.	16aa 16cc\
8f#J 8cn\	16dddn 16cc\
.	16ff#JJ 16cc\
=139	=139
!LO:TX:t=P:problem:mixed beam	!
8GGn/L	16ggnLL 16b\
.	16bb 16b\
8gnJ 8B\	16ddd 16b\
.	16gg 16b\
8C#\L	16ee#X 16b\
.	16gg 16b\
8e#XJ 8B\	16ccc# 16b\
.	16ee#JJ 16b\
=140	=140
!LO:TX:t=P:problem:mixed beam	!
8FF#/L	16ff#LL 16a#X\
.	16aa#X 16a#\
8f#J 8A#X\	16ccc# 16a#\
.	16ff# 16a#\
8Cn\L	16ee 16b-X\
.	16ggn 16b-\
8eJ 8B-X\	16cccn 16b-\
.	16eeJJ 16b-\
!!LO:LB:g=original
=141	=141
4A 4Cn 4FFn\	(16ffnLL 16a\
.	16cccn 16aa\)
.	(16ccc 16aa\
.	16ff 16a\)
!LO:SIC:v:n=3:s=4BB-\	!
4d-X 4Fn 4BB\	(16ff 16b-X\
.	16ddd-X 16bb-X\)
.	(16ddd- 16bb-\
.	16ffJJ 16b-\)
=142	=142
*^	*
8ryy	4e 4B-X 4Cn\	(16eeLL 16b-X\
.	.	16cccnJJ 16ggn\)
16ryy	.	16gggn 16ccc 16gg/
16ggny> 16ee>\	.	16ryy
16ryy	4ryy	16ccc 16gg 16ccn/
16ee> 16ccny>\	.	16ryy
16ryy	.	16gg 16cc 16g#/
16cc> 16e>\	.	16ryy
*v	*v	*
=143	=143
4A 4Cn 4FFn\	(16ffnLL 16a\
.	16cccn 16aa\)
.	(16ccc 16aa\
.	16ff 16a\)
4d-X 4Fn 4BB-\	(16ff 16b-X\
.	16ddd-X 16bb-X\)
.	(16ddd- 16bb-\
.	16ffJJ 16b-\)
=144	=144
*^	*
8ryy	4e 4B-X 4Cn\	(16eeLL 16b-X\
.	.	16cccnJJ 16ggn\)
16ryy	.	16gggn 16ccc 16gg/
16ggny> 16ee>\	.	16ryy
16ryy	4ryy	16ccc 16gg 16ccn/
16ee> 16ccny>\	.	16ryy
16ryy	.	16gg 16cc 16g#/
16cc> 16e>\	.	16ryy
*v	*v	*
=145	=145
8FFn\L	(16ffnLL 16a\
.	16cccn 16aa\)
8fnJ 8A\	(16ccc 16aa\
.	16ff 16a\)
8Fn\L	(16ee 16a\
.	16ccc 16aa\)
8eJ 8A\	(16ccc 16aa\
.	16eeJJ 16a\)
!!LO:LB:g=original
=146	=146
8Fn\L	(16dd#XLL 16a\
.	16aa 16dd#\)
8d#XJ 8A\	16aa 16dd#|\
.	16dd#JJ 16a|\
8FFn\L	(16aLL 16d#X\
.	16dd# 16a\)
8A\J	16dd# 16a'\
.	16aJJ 16d#'\
=147	=147
4A 4C# 4EE\	16eeLL 16a'/
.	16a 16e'/
.	16a 16e'/
.	16eJJ 16A'/
4EEE/	16eLL 16A'/
.	16a 16e'/
.	16a 16e'/
.	16eeJJ 16a'/
=148	=148
4A 4C# 4EE\	16eeLL 16a/
.	16a 16e/
.	16a 16e/
.	16eJJ 16A/
4EEE/	16eLL 16A/
.	16a 16e/
.	16a 16e/
.	16eeJJ 16a/
=149	=149
4c# 4A 4E\	16aaLL 16ee\
.	16ee 16a\
.	16ee 16a\
.	16aJJ 16e\
4E 4EE/	16aLL 16e\
.	16ee 16a\
.	16ee 16a\
.	16aaJJ 16ee\
=150	=150
4a 4e 4c#\	16eeeLL 16aa\
.	16aa 16ee\
.	16aa 16ee\
.	16eeJJ 16a\
4c# 4E\	16eeLL 16a\
.	16aa 16ee\
.	16aa 16ee\
.	16eeeJJ 16aa\
=151	=151
4cc# 4a 4e 4c#\	16aaaLL 16eee\
.	16eee 16aa\
.	16aa 16ee\
.	16eeJJ 16a\
8e 8c#\	16aaLL 16ee\
.	16eeJJ 16a\
8ryy	16a<LL 16e<\
.	16e<JJ 16A<\
!!LO:LB:g=original
=152	=152
!LO:TX:a:t=ms	!
!LO:TX:b:t=md	!
8E 8C#\	16a<LL 16e</
.	16e< 16A</
8rGG	16A< 16E</
.	16E<JJ 16AA</
8EE 8CC#\	16A<LL 16E</
.	16E< 16AA</
8rAAA	16AA< 16EE</
.	16EE<JJ 16AAA</
=153	=153
8EEL 8EEE/	16r
.	16eeLL 16b 16a 16e 16d\
8EJ 8EE/	16ee 16b 16a 16e 16d\
.	16ee 16b 16a 16e 16d\
4e 4E\	16ee 16b 16a 16e 16d\
.	16ee 16b 16a 16e 16d\
.	16ee 16b 16a 16e 16d\
.	16eeJJ 16b 16a 16e 16d\
=154	=154
!LO:TX:t=P:problem:mixed beam	!
8EL 8EE/	16r
.	16bbLL 16aa 16ee 16b 16a\
8eJ 8E\	16bb 16aa 16ee 16b 16a\
.	16bb 16aa 16ee 16b 16a\
*clefG2	*
4ee 4e\	16bb 16aa 16ee 16b 16a\
.	16bb 16aa 16ee 16b 16a\
.	16bb 16aa 16ee 16b 16a\
.	16bbJJ 16aa 16ee 16b 16a\
*clefF4	*
=155	=155
8EEL 8EEE/	16r
.	16eeeLL 16bb 16gg# 16ee 16dd\
8EJ 8EE/	16eee 16bb 16gg# 16ee 16dd\
.	16eee 16bb 16gg# 16ee 16dd\
8eL 8E\	16eee 16bb 16gg# 16ee 16dd\
.	16eee 16bb 16gg# 16ee 16dd\
8eeJ 8e\	16eee 16bb 16gg# 16ee 16dd\
.	16eeeJJ 16bb 16gg# 16ee 16dd\
*clefG2	*
=156	=156
*	*8va
16eeeLL 16gg# 16ee\	16eeeeLL 16bbb 16ggg# 16ddd\
16eee 16gg# 16ee\	16eeee 16bbb 16ggg# 16ddd\
16eee 16gg# 16ee\	16eeee 16bbb 16ggg# 16ddd\
16eee 16gg# 16ee\	16eeee 16bbb 16ggg# 16ddd\
16eee 16gg# 16ee\	16eeee 16bbb 16ggg# 16ddd\
16eee 16gg# 16ee\	16eeee 16bbb 16ggg# 16ddd\
16eee 16gg# 16ee\	16eeee 16bbb 16ggg# 16ddd\
16eeeJJ 16gg# 16ee\	16eeeeJJ 16bbb 16ggg# 16ddd\
!!LO:LB:g=original
=157	=157
16dddLL 16bb\	16eeeeLL 16ggg# 16eee\
16ccc# 16aa#X\	16dddd#X 16fff##X 16ddd#X\
!	!LO:N:n=2:acc=n#
16cccn 16aan\	16ddddn 16fff#X 16dddn\
16bb 16gg#\	16cccc# 16eee#X 16ccc#\
16bb-X 16ggn\	16ccccn 16eeen 16cccn\
16aa 16ff#\	16bbb 16ddd#X 16bb\
16aa-X 16ffn\	16bbb-X 16dddn 16bb-X\
16ggnJJ 16ee\	16aaaJJ 16ccc 16aa\
*	*X8va
=158	=158
16ff#LL 16dd#X\	16ggg#LL 16bb#X 16gg#\
16ffn 16ddn\	16gggn 16bbn 16ggn\
16ee 16cc#\	16fff# 16aa#X 16ff#\
16ee-X 16ccn\	16fffn 16aan 16ffn\
16dd 16b\	16eee 16gg#X 16ee\
16cc 16a#X\	16ddd#X 16ff##X 16dd#X\
!	!LO:N:n=2:acc=n#
16ccn 16an\	16dddn 16ff#X 16ddn\
16bJJ 16g#\	16ccc#JJ 16ee#X 16cc#\
*clefF4	*
=159	=159
16b-XLL 16gn\	16cccnLL 16een 16ccn\
16a 16f#\	16bb 16dd#X 16b\
16a-X 16fn\	16bb-X 16ddn 16b-X\
16gn 16e\	16aa 16cc 16a\
!LO:SIC:v:n=1:s=16f#	!
16fn 16d#X\	16gg# 16b#X 16g#\
16fn 16dn\	16ggn 16bn 16gn\
16e 16c#\	16ff# 16a#X 16f#\
16e-XJJ 16cn\	16ffnJJ 16an 16fn\
=160	=160
16dLL 16B\	16eeLL 16g#X 16e\
16c# 16A#X\	16dd#X 16f##X 16d#X\
!	!LO:N:n=2:acc=n#
16cn 16An\	16ddn 16f#X 16dn\
16BJJ 16G#\	16cc#JJ 16e#X 16c#\
!LO:TUP:a:problem:klamra łukowa	!LO:TUP:a:problem:klamra łukowa
12B-XL 12Gn\	12ccnL 12en 12cn\
12A 12F#\	12b 12d#X 12B\
12GJ 12D 12EE\	12eeJ 12b 12e 12dn\
=161	=161
!LO:TX:t=P:problem:mixed beam	!
8AAAL 8AAAA/	8a 8c# 8A/
8c# 8A 8E\	8eeL 8cc# 8a 8e\
8c# 8A 8D#X\	8dd#X 8cc# 8a 8d#X\
8c#J 8A 8E\	8eeJ 8cc# 8a 8e\
!!LO:PB:g=original
=162	=162
8c#L 8A 8E\	8eeL 8cc# 8a 8e\
*clefG2	*
8cc# 8a 8e\	8eee 8ccc# 8aa 8ee\
8cc# 8a 8e\	8eee 8ccc# 8aa 8ee\
8cc#J 8a 8e\	8eeeJ 8ccc# 8aa 8ee\
*clefF4	*
=163	=163
!LO:TX:t=P:problem:mixed beam	!
8AAL 8AAA/	8r
8f# 8cn 8F#\	8ff#L 8ccn 8f#\
8g# 8c 8G#\	8gg# 8cc 8g#\
8aJ 8c 8A\	8aaJ 8cc 8a\
=164	=164
8c#L 8A 8E\	8eeL 8cc# 8a 8e\
*clefG2	*
8cc# 8a 8e\	8eee 8ccc# 8aa 8ee\
8cc# 8a 8e\	8eee 8ccc# 8aa 8ee\
8cc#J 8a 8e\	8eeeJ 8ccc# 8aa 8ee\
*clefF4	*
=165	=165
!LO:TX:t=P:problem:mixed beam	!
8DL 8DD/	8ggg#L 8eee 8gg#\
8f# 8d 8B 8F#\	8fff# 8ddd 8ff#\
8b 8f# 8d 8B\	8eee 8ccc# 8ee\
8f#J 8d 8B 8F#\	8dddJ 8bb 8dd\
=166	=166
!LO:TX:t=P:problem:mixed beam	!
8EL 8EE/	8dddL 8bb 8dd\
8e 8c# 8A 8E\	8ccc# 8aa 8cc#\
8a 8e 8c# 8A\	8eee 8ccc# 8aa 8ee\
8eJ 8c# 8A 8E\	8aaJ 8a\
=167	=167
!LO:TX:t=P:problem:mixed beam	!
8EEL 8EEE/	8gg#L 8ee 8g#\
8e 8d 8G# 8E\	8bb 8gg# 8ee 8b\
8g# 8d 8G#\	8fff# 8bb 8ff#\
8eJ 8d 8G# 8E\	8eeeJ 8ee\
!!LO:LB:g=original
=168	=168
!LO:TX:t=P:problem:mixed beam	!
8AAL 8AAA/	8aaL 8ee 8cc# 8a\
8e 8c# 8A 8E\	8ccc# 8aa 8ee 8cc#\
8a 8e 8c# 8A\	8ddd#X 8ccc# 8aa 8dd#X\
8eJ 8c# 8A 8E\	8eeeJ 8ccc# 8aa 8ee\
=169	=169
!LO:TX:t=P:problem:mixed beam	!
8AAL 8AAA/	8r
8c# 8A 8E\	8eeL 8cc# 8a 8e\
8c# 8A 8D#X\	8dd#X 8cc# 8a 8d#X\
8c#J 8A 8E\	8eeJ 8cc# 8a 8e\
=170	=170
8c#L 8A 8E\	8eeL 8cc# 8a 8e\
*clefG2	*
8cc# 8a 8e\	8eee 8ccc# 8aa 8ee\
8cc# 8a 8e\	8eee 8ccc# 8aa 8ee\
8cc#J 8a 8e\	8eeeJ 8ccc# 8aa 8ee\
*clefF4	*
=171	=171
!LO:TX:t=P:problem:mixed beam	!
8AAL 8AAA/	8r
8fn 8c# 8Fn\	8ffnL 8ccn 8fn\
8g# 8c# 8G#\	8gg# 8cc 8g#\
8aJ 8c# 8A\	8aaJ 8cc 8a\
=172	=172
8c#L 8A 8E\	8eeL 8cc#X 8a 8e\
*clefG2	*
8cc# 8a 8e\	8eee 8ccc# 8aa 8ee\
8cc# 8a 8e\	8eee 8ccc# 8aa 8ee\
8cc#J 8a 8e\	8eeeJ 8ccc# 8aa 8ee\
*clefF4	*
=173	=173
8DL 8DD\	8ggg#L 8eee 8gg#\
8f# 8d 8B 8F#\	8fff# 8ddd 8ff#\
8b 8f# 8d 8B\	8eee 8ccc# 8ee\
8f#J 8d 8B 8F#\	8dddJ 8bb 8dd\
!!LO:LB:g=original
=174	=174
8E 8EE/	8dddL 8aa 8dd\
8eL 8c# 8A 8E\	8ccc# 8aa 8cc#\
8a 8e 8c# 8A\	8eee 8ccc# 8aa 8ee\
8eJ 8c# 8A 8E\	8aaJ 8a\
=175	=175
!LO:TX:t=P:problem:mixed beam	!
8EEL 8EEE/	8gg#L 8ee 8g#\
8e 8d 8G# 8E\	8bb 8gg# 8ee 8b\
8g# 8d 8G#\	8fff# 8bb 8ff#\
8eJ 8d 8G# 8E\	8eeeJ 8ee\
=176	=176
!LO:TX:t=P:problem:mixed beam	!
8AAL 8AAA/	8aaL 8ee 8cc# 8a\
8e 8c# 8A 8E\	8ccc# 8aa 8ee 8cc#\
8a 8e 8c# 8A\	8ddd#X 8ccc# 8aa 8dd#X\
8eJ 8c# 8A 8E\	8eeeJ 8ccc# 8aa 8ee\
=177	=177
8D 8DD/	8ggg#L 8eee 8gg#\
8f#L 8d 8A 8F#\	8fff# 8ddd 8ff#\
8a 8f# 8d 8A\	8.aaa 8.ddd 8.aa\
8fnJ 8d 8A 8Fn\	.
.	16dddJk 16aa 16dd\
=178	=178
!LO:TX:t=P:problem:mixed beam	!
8EE/L	8dddL 8aa 8dd\
8e 8c# 8A 8E\	8ccc# 8aa 8cc#\
8a 8e 8c# 8A\	8eee 8aa 8ee\
8eJ 8c# 8A 8E\	8aaJ 8ee 8a\
=179	=179
!LO:TX:t=P:problem:mixed beam	!
8EE/L	8aaL 8dd#X 8a\
8cn 8A 8D#X 8Cn\	8dd# 8a 8d#X\
8d#X 8A 8D#\	8cc##X 8a 8c##X\
8cJ 8A 8D# 8C\	8dd#J 8a 8d#\
!!LO:LB:g=original
=180	=180
.	32qqe\LLL
.	32qqee\JJJ
!LO:TX:t=P:problem:mixed beam	!
8EEL 8EEE/	4.ccc# 4.ee 4.g#\
8d 8G# 8E 8D\	.
8g# 8d 8G#\	.
8eJ 8d 8G# 8E\	8bb 8ee 8g#\
=181	=181
*^	*^
8e/L	4E 4AA\	4aa 4a/	8ee\L
8d#X/J	.	.	8dd#X\J
8f#/L	4D#X 4BB\	4aa 4a/	8ff#\L
8B/J	.	.	8b\J
=182	=182	=182	=182
8dn/L	4E 4EE\	4gg# 4g#/	8dd\L
8c#/J	.	.	8cc#\J
8e/L	4C# 4AA\	4aa 4a/	8ee\L
8A/J	.	.	8a\J
=183	=183	=183	=183
8C#/L	4FF#\	4a 4f#/	8c#\L
8BB#X/J	.	.	8B#X\J
8D#X/L	4DD#X 4GGG#\	4g# 4f#/	8d#X\L
8GG#/J	.	.	8G#\J
=184	=184	=184	=184
8BBn/L	4CC#\	4g# 4e#X/	8Bn\L
8AA#X/J	.	.	8A#X\J
8C#/L	4CC# 4FFF#\	4f# 4en/	8c#\L
8FF#/J	.	.	8F#\J
*v	*v	*	*
*	*v	*v
=185	=185
!LO:TX:t=P:problem:mixed beam	!
8BBL 8BBB/	8fff#L 8ddd#X 8ff#\
8d 8Fn\	8fffn 8dddn 8ffn\
8a 8A\	8.aaa 8.ddd 8.aa\
8dJ 8F\	.
.	16dddJk 16dd\
!!LO:LB:g=original
=186	=186
8E 8EE/	8dddL 8aa 8dd\
8c#L 8E\	8ccc# 8aa 8cc#\
8e 8A\	8.eee 8.aa 8.ee\
8c#J 8E\	.
.	16aaJk 16a\
=187	=187
!LO:TX:t=P:problem:mixed beam	!
8EE\L	8aaL 8dd#X 8a\
8cny 8D#X 8Cn\	8dd# 8a 8d#X\
!LO:N:n=1:acc=n#	!
8d#X 8A 8D#X\	8cc##X 8a 8c##X\
8cJ 8D# 8C\	8dd#J 8a 8d#\
=188	=188
.	32qqe\LLL
.	32qqee\JJJ
!LO:TX:t=P:problem:mixed beam	!
8EEE/L	4.ccc# 4.ee 4.g#\
8e 8G# 8E\	.
8g# 8d 8G#\	.
8eJ 8d 8E\	8bb 8ee 8g#\
=189	=189
*^	*^
8e/L	4E 4AA\	4aa 4a/	8ee\L
8d#X/J	.	.	8dd#X\J
8f#/L	4D#X 4BB\	4aa 4a/	8ff#\L
8B/J	.	.	8b\J
=190	=190	=190	=190
8d/L	4E 4EE\	4gg# 4g#/	8dd\L
8c#/J	.	.	8cc#\J
8e/L	4C# 4AA\	4aa 4a/	8ee\L
8A/J	.	.	8a\J
=191	=191	=191	=191
8C#/L	4FF#\	4a 4f#/	8c#\L
8BB#X/J	.	.	8B#X\J
8D#X/L	4DD#X 4GGG#\	4g# 4f#/	8d#X\L
8GG#/J	.	.	8G#\J
!!LO:LB:g=original
=192	=192	=192	=192
8BB/L	4CC#\	4g# 4e#X/	8Bn\L
8AA#X/J	.	.	8A#X\J
8C#/L	4CC# 4FFF#\	4f# 4en/	8c#\L
8FF#/J	.	.	8F#\J
*v	*v	*	*
*	*v	*v
=193	=193
8BBL 8BBB\	8fff#L 8ddd#X 8ff#\
8d 8Fn\	8fffn 8dddn 8ffn\
8a 8A\	8.aaa 8.ddd 8.aa\
8dJ 8F\	.
.	16dddJk 16dd\
=194	=194
8EL 8EE\	8dddL 8aa 8dd\
8c# 8E\	8ccc# 8aa 8cc#\
8e 8A\	8.eee 8.aa 8.ee\
8c#J 8E\	.
.	16aaJk 16a\
=195	=195
8EE\L	8aaL 8dd#X 8a\
8cny 8D#X 8Cn\	8dd# 8a 8d#X\
!LO:N:n=1:acc=n	!
8d#X 8A 8D#\	8cc##X 8a 8c##X\
8cJ 8D# 8C\	8dd#J 8a 8d#\
=196	=196
.	32qqe\LLL
.	32qqee\JJJ
!LO:TX:t=P:problem:mixed beam	!
8EEE/L	4.ccc# 4.ee 4.g#\
8e 8G# 8E\	.
8g# 8d 8G#\	.
8eJ 8d 8E\	8bb 8ee 8g#\
!!LO:PB:g=original
=197	=197
8AA 8AAA/	8aa 8cc# 8a\
*clefG2	*Xtuplet
8aL 8e 8c#/	24ee\LL
.	24ff#\
.	24ee\
8a 8d#X 8cn/	24dd#X\
.	24aa\
.	24dd#\
8aJ 8e 8c#/	24ee\
.	24ff#\
.	24ee\JJ
*clefF4	*
=198	=198
8AA\L	24e\LL
.	24a\
.	24ee\
8a 8e 8c#\	24ee\
.	24ff#\
.	24ee\JJ
8a 8d#X 8cn\	24dd#X\LL
.	24aa\
.	24dd#\
8aJ 8e 8c\	24ee\
.	24ff#\
.	24ee\JJ
=199	=199
8EE/	24r
.	24eeLL 24dd 24g#\
.	24eeJJ 24dd 24g#\
*clefG2	*
8fnL 8e/	24r
.	24ffnLL 24dd 24g#\
.	24ffJJ 24dd 24g#\
8f#X 8e/	24r
.	24ff#XLL 24dd 24a\
.	24ff#JJ 24dd 24a\
8gnJ 8e/	24r
.	24ggnLL 24dd 24b-X\
.	24ggJJ 24dd 24b-\
=200	=200
8g#XL 8E/	24r
.	24gg#XLL 24dd 24bn\
.	24gg#JJ 24dd 24b\
8gn 8e/	24r
.	24ggnLL 24dd 24b-X\
.	24ggJJ 24dd 24b-\
8f# 8e/	24r
.	24ff#LL 24dd 24a\
.	24ff#JJ 24dd 24a\
8fnJ 8e/	24r
.	24ffnLL 24dd 24g#\
.	24ffJJ 24dd 24g#\
!!LO:LB:g=original
=201	=201
*clefF4	*
8AA\L	8ee 8cc# 8a\
8a 8e 8c#\	24ee\LL
.	24ff#\
.	24ee\
8a 8d#X 8cn\	24dd#X\
.	24aa\
.	24dd#\
8aJ 8e 8c#X\	24ee\
.	24ff#\
.	24ee\JJ
=202	=202
8AA\L	24e\LL
.	24a\
.	24ee\
8a 8e 8c#\	24ee\
.	24ff#\
.	24ee\JJ
8a 8d#X 8cn\	24dd#X\LL
.	24aa\
.	24dd#\
8aJ 8e 8c#X\	24ee\
.	24ff#\
.	24ee\JJ
=203	=203
8EE\L	24ddLL 24g# 24e\
.	24eee 24ee\
.	24eeeJJ 24ee\
*clefG2	*
8dd 8g# 8fn 8e\	24r
.	24eeeLL 24ee\
.	24eeeJJ 24ee\
8dd 8a 8f#X 8e\	24r
.	24eeeLL 24ee\
.	24eeeJJ 24ee\
8ddJ 8b-X 8gn 8e\	24r
.	24eeeLL 24ee\
.	24eeeJJ 24ee\
=204	=204
8ddL 8bn 8g#X 8e\	24r
.	24eeeLL 24ee\
.	24eeeJJ 24ee\
8dd#X 8ccn 8a 8e\	24r
.	24eeeLL 24ee\
.	24eeeJJ 24ee\
8ee 8cc#X 8a#X 8e\	24r
.	24eeeLL 24ee\
.	24eeeJJ 24ee\
8eeJ 8dd# 8b 8e\	24r
.	24eeeLL 24ee\
.	24eeeJJ 24ee\
=205	=205
!LO:TX:t=P:problem:mixed beam	!
8f#/L	24eeeLL 24ee\
.	24ff#\
.	24ee\JJ
8aa 8cc#\	24ddd#XLL 24dd#X\
.	24ee\
.	24dd#\JJ
8fff# 8aa\	24ccc##XLL 24cc##X\
.	24dd#\
.	24cc##\JJ
8aaJ 8cc#\	24ddd#LL 24dd#\
.	24ee\
.	24dd#\JJ
!!LO:LB:g=original
=206	=206
*clefF4	*
8AA 8AAA/	24eeeLL 24ee\
.	24ff#\
.	24ee\JJ
8aL 8gn 8e 8c# 8A 8Gn\	24r
.	24aaLL 24ee 24a\
.	24aaJJ 24ee 24a\
8a 8g 8d#X 8B#X 8A 8G\	24r
.	24aaLL 24dd#X 24a\
.	24aaJJ 24dd# 24a\
8aJ 8g 8e 8c# 8A 8G\	24r
.	24aaLL 24ee 24a\
.	24aaJJ 24ee 24a\
=207	=207
8c#L 8AA\	24gn\LL
.	24ee 24a\
.	24eeJJ 24a\
8d\	24g\LL
.	24ee#X 24a\
.	24ee#JJ 24a\
8d#X 8A\	24g\LL
.	24ff# 24a\
.	24ff#JJ 24a\
8e\J	24g\LL
.	24ggn 24a\
.	24ggJJ 24a\
=208	=208
8aL 8gn 8A 8D\	24r
.	24bbLL 24a\
.	24bbJJ 24a\
8a 8f#\	24r
.	24aaLL 24a\
.	24aaJJ 24a\
8a 8g#X 8e#X\	24r
.	24gg#LL 24a\
.	24gg#JJ 24a\
8aJ 8f#\	24r
.	24aaLL 24a\
.	24aaJJ 24a\
=209	=209
8D\L	24fff#LL 24ff#\
.	24ggn\
.	24ff#\
8f# 8A\	24eee#X 24ee#X\
.	24ff#\
.	24ee#\
8dd 8f#\	24eeen 24een\
.	24ee#X\
.	24een\
8f#J 8A\	24eee#X 24ee#X\
.	24ff#\
.	24ee#\JJ
=210	=210
!LO:TX:t=P:problem:mixed beam	!
8BBL 8BBB/	24fff#LL 24ff#\
.	24ggn\
.	24ff#\JJ
8b 8a#X 8f# 8d#X 8B 8A\	24r
.	24bbLL 24ff# 24b\
.	24bbJJ 24ff# 24b\
8b 8a# 8fn 8dn 8B 8A\	24r
.	24bbLL 24ee#X 24b\
.	24bbJJ 24ee# 24b\
8bJ 8a# 8f#X 8d#X 8B 8A\	24r
.	24bbLL 24ff# 24b\
.	24bbJJ 24ff# 24b\
!!LO:LB:g=original
=211	=211
!LO:TX:t=P:problem:mixed beam	!
8BBB/L	24d#XLL 24B/
.	24b 24a/
.	24ccn/JJ
8d#X 8A\	24bLL 24a/
.	24dd#X/
.	24bJJ 24a/
8f# 8B\	24ff#/LL
.	24b 24a/
.	24bb/JJ
8d#J 8A\	24bLL 24a/
.	24ddd#X/
.	24bJJ 24a/
=212	=212
!LO:TX:t=P:problem:mixed beam	!
8BBL 8EE/	24bLL 24gn\
!	!LO:TX:t=P:problem:skreślona nuta
.	24eee 24ee\
.	24bb\JJ
8e 8Gn\	32bbLLL 32gg#\
.	32aa#X\
.	32bb\
.	32aa#\
8b 8B\	32aa# 32ff#\
.	32aan\
.	32aa#X\
.	32aan\
8eJ 8G\	32aa 32ffn\
.	32gg#\
.	32aa\
.	32gg#\JJJ
=213	=213
!LO:TX:t=P:problem:mixed beam	!
8GGn/L	32ggnLLL 32ee\
.	32gg#X\
.	32ggn\
.	32gg#X\
8e 8B\	32gg# 32ffn\
.	32aa\
.	32gg#\
.	32aa\
8b 8e\	32aa 32ff#X\
.	32aa#X\
.	32aan\
.	32aa#X\
8eJ 8B\	32aa# 32ggn\
.	32bb\
.	32aa#\
.	32bb\JJJ
=214	=214
8GGn 8GGGn/	24bbLL 24ggn\
.	24gggn 24bb\
.	24ddd\JJ
*clefG2	*
8gnL 8B/	32dddLLL 32aa#X\
.	32ccc#\
.	32ddd\
.	32ccc#\
8dd 8d/	32ccc# 32aan\
.	32cccn\
.	32ccc#X\
.	32cccn\
8gJ 8B/	32ccc 32gg#X\
.	32bb\
.	32ccc\
.	32bb\JJJ
*clefF4	*
!!LO:LB:g=original
=215	=215
8BB\	32aa#XLLL 32ggn\
.	32bb\
.	32aa#\
.	32bb\
*clefG2	*
8bL 8d\	32bb 32gg#X\
.	32cccn\
.	32bb\
.	32ccc\
8dd 8b\	32ccc 32aan\
.	32ccc#X\
.	32cccn\
.	32ccc#X\
8bJ 8d\	32ccc# 32aa#X\
.	32ddd\
.	32ccc#\
.	32ddd\JJJ
*clefF4	*
=216	=216
8BB 8BBB/	24ddd#XLL 24bb\
.	24bbb 24ddd#\
.	24fff#\JJ
*clefG2	*
8f#L 8B/	32fff#LLL 32dddn\
.	32eee#X\
.	32fff#\
.	32eee#\
8dd#X 8f#/	32eee# 32ccc#\
.	32eeen\
.	32eee#X\
.	32eeen\
8f#J 8B/	32eee 32cccn\
.	32ddd#X\
.	32eee\
.	32ddd#\JJJ
*clefF4	*
=217	=217
!LO:TX:t=P:problem:mixed beam	!
8DD#X/L	32ddd#XLLL 32bb\
.	32dddn\
.	32ddd#X\
.	32dddn\
8d#X 8F#\	32dddn 32aa#X\
.	32ccc#\
.	32ddd\
.	32ccc#\
8b 8d#\	32ccc# 32aan\
.	32cccn\
.	32ccc#X\
.	32cccn\
8d#J 8F#\	32ccc 32gg#\
.	32bb\
.	32ccc\
.	32bb\JJJ
=218	=218
!LO:TX:t=P:problem:mixed beam	!
8EE/L	32bbLLL 32ggn\
.	32aa#X\
.	32bb\
.	32aa#\
8eJ 8Gn\	32aa# 32ff#\
.	32aan\
.	32aa#X\
.	32aan\JJJ
!!LO:LB:g=original
8bL 8e\	32aaLLL 32ffn\
!	!LO:SIC:v:s=32gg#
.	32gg\
.	32aa\
!	!LO:SIC:v:s=32gg#
.	32gg\
!	!LO:SIC:v:n=1:s=32gg#
8eJ 8G\	32gg 32ee\
.	32ggn\
.	32gg#X\
.	32ggn\JJJ
=219	=219
8FF#\L	32ggnLLL 32a#X\
.	32ff#\
.	32gg\
.	32ff#\
8A#X 8E\	32ff# 32a#\
.	32ffn\
.	32ff#X\
.	32ffn\
8e 8A#\	32ff 32a#\
.	32ee\
.	32ff\
.	32ee\
8A#J 8E\	32ee 32a#\
.	32dd#X\
.	32ee\
.	32dd#\JJJ
=220	=220
8BB 8BBB/	24dd#XLL 24b\
.	24bbb 24ddd#X\
.	24fff#\JJ
*clefG2	*
8f#L 8B/	32fff#LLL 32dddn\
.	32eee#X\
.	32fff#\
.	32eee#\
8dd#X 8f#/	32eee# 32ccc#\
.	32eeen\
.	32eee#X\
.	32eeen\
8f#J 8B/	32eee 32cccn\
.	32ddd#X\
.	32eee\
.	32ddd#\JJJ
*clefF4	*
=221	=221
!LO:TX:t=P:problem:mixed beam	!
8DD#X/L	32ddd#XLLL 32bb\
.	32dddn\
.	32ddd#X\
.	32dddn\
8d#X 8F#\	32ddd 32aa\
.	32ccc#\
.	32ddd\
.	32ccc#\
8b 8d#\	32ccc# 32aan\
.	32cccn\
.	32ccc#X\
.	32cccn\
8d#J 8F#\	32ccc 32gg#\
.	32bb\
.	32ccc\
.	32bb\JJJ
!!LO:PB:g=original
=222	=222
!LO:TX:t=P:problem:mixed beam	!
8EE\L	32bbLLL 32ggn\
.	32aa#X\
.	32bb\
.	32aa#\
8e 8Gn\	32aa# 32ff#\
.	32aan\
.	32aa#X\
.	32aan\
8b 8e\	32aa 32ffn\
!	!LO:SIC:v:s=32gg#
.	32gg\
.	32aa\
!	!LO:SIC:v:s=32gg#
.	32gg\
!	!LO:SIC:v:n=1:s=32gg#
8eJ 8G\	32gg 32ee\
.	32ggn\
.	32gg#X\
.	32ggn\JJJ
=223	=223
!LO:TX:t=P:problem:mixed beam	!
8FF#\L	32ggnLLL 32a#X\
.	32ff#\
.	32gg\
.	32ff#\
8A#X 8E\	32ff# 32a#\
.	32ffn\
.	32ff#X\
.	32ffn\
8e 8A#\	32ff 32a#\
.	32ee\
.	32ff\
.	32ee\
8A#J 8E\	32ee 32a#\
.	32dd#X\
.	32ee\
.	32dd#\JJJ
=224	=224
4D#X 4FF# 4BBB/	24dd#XLL 24b\
.	24bb 24ff#\
.	24dd# 24b\
.	24b 24f#\
.	24d#X 24B\
.	24bJJ 24f#\
*Xtuplet	*
!	!LO:TX:t=P:problem:mixed beam
!	!LO:TUP:a:problem:klamra łukowa
24r>yy	24BB<LL 24DD#X< 24BBB</
!LO:TX:a:t=md	!
24r>yy	24B<JJ 24F#< 24D#X<\
!	!LO:TX:a:t=ms
24b>LL 24f#> 24d#X>\	24r<yy
!LO:TUP:a:problem:klamra łukowa	!
24b>JJ 24f#> 24d#>\	24r<yy
!LO:TX:a:t=md	!LO:TX:t=P:problem:mixed beam
24r>yy	24B<LL 24F#< 24D#<\
24r>yy	24BB<JJ 24BBB</
=225	=225
!	!LO:TX:t=P:problem:mixed beam
!	!LO:TUP:a:problem:klamra łukowa
24r>yy	24Cn<LL 24GGn< 24EE</
!LO:TX:a:t=md	!
24r>yy	24cn<JJ 24Gn< 24E<\
!	!LO:TX:a:t=ms.
24ccn>LL 24gn> 24e>\	24r<yy
!LO:TUP:a:problem:klamra łukowa	!
24cc>JJ 24g> 24e>\	24r<yy
!LO:TX:a:t=md	!LO:TX:t=P:problem:mixed beam
24r>yy	24c<LL 24G< 24E<\
24r>yy	24E<JJ 24EE</
!!LO:LB:g=original
!	!LO:TX:t=P:problem:mixed beam
!	!LO:TUP:a:problem:klamra łukowa
24r>yy	24F#<LL 24C#X< 24FF#</
!LO:TX:a:t=md	!
24r>yy	24e<JJ 24A#X< 24E<\
!	!LO:TX:a:t=ms
24ee>LL 24a#X> 24e>\	24r<yy
!LO:TUP:a:problem:klamra łukowa	!
24ee>JJ 24a#> 24e>\	24r<yy
!LO:TX:a:t=md	!LO:TX:t=P:problem:mixed beam
24r>yy	24e<LL 24A#< 24E<\
24r>yy	24F#<JJ 24FF#</
=226	=226
4D#X 4FF# 4BBB\	24dd#XLL 24b\
.	24bb 24ff#\
.	24dd# 24b\
.	24b 24f#\
.	24d#X 24B\
.	24bJJ 24f#\
!	!LO:TX:t=P:problem:mixed beam
!	!LO:TUP:a:problem:klamra łukowa
24r>yy	24BB<LL 24DD#X< 24BBB</
!LO:TX:a:t=md	!
24r>yy	24B<JJ 24F#< 24D#X<\
!	!LO:TX:a:t=ms
24b>LL 24f#> 24d#X>\	24r<yy
!LO:TUP:a:problem:klamra łukowa	!
24b>JJ 24f#> 24d#>\	24r<yy
!LO:TX:a:t=md	!LO:TX:t=P:problem:mixed beam
24r>yy	24B<LL 24F#< 24D#<\
24r>yy	24BB<JJ 24BBB</
=227	=227
!	!LO:TX:t=P:problem:mixed beam
!	!LO:TUP:a:problem:klamra łukowa
24r>yy	24Cn<LL 24GGn< 24EE</
!LO:TX:a:t=md	!
24r>yy	24cn<JJ 24Gn< 24E<\
!	!LO:TX:a:t=ms
24ccn>LL 24gn> 24e>\	24r<yy
!LO:TUP:a:problem:klamra łukowa	!
24cc>JJ 24g> 24e>\	24r<yy
!LO:TX:a:t=md	!LO:TX:t=P:problem:mixed beam
24r>yy	24c<LL 24G< 24E<\
24r>yy	24E<JJ 24EE</
!	!LO:TX:t=P:problem:mixed beam
!	!LO:TUP:a:problem:klamra łukowa
!	!LO:SIC:v:n=2:s=24C#<
24r>yy	24F#<LL 24C< 24FF#</
!LO:TX:a:t=md	!
24r>yy	24e<JJ 24A#X< 24E<\
!	!LO:TX:a:t=ms
24ee>LL 24a#X> 24e>\	24r<yy
!LO:TUP:a:problem:klamra łukowa	!
24ee>JJ 24a#> 24e>\	24r<yy
!LO:TX:a:t=md.	!LO:TX:t=P:problem:mixed beam
24r>yy	24e<LL 24A#< 24E<\
24r>yy	24F#<JJ 24FF#</
=228	=228
*	*tuplet
!LO:TX:t=P:problem:mixed beam	!LO:TUP:a:problem:klamra łukowa
8BBL 8BBB/	24r
.	24bLL 24d#X 24B\
.	24bJJ 24d# 24B\
!	!LO:TUP:a:problem:klamra łukowa
8cnJ 8A\	24r
.	24ccnLL 24e 24cn\
.	24ccJJ 24e 24c\
!!LO:LB:g=original
*	*Xtuplet
8BL 8A\	24r
.	24bLL 24d#X 24B\
.	24bJJ 24d# 24B\
8eJ 8cn 8A\	24r
.	24eeLL 24ccn 24e\
.	24eeJJ 24cc 24e\
=229	=229
8d#XL 8B 8A\	24r
.	24dd#XLL 24b 24d#X\
.	24dd#JJ 24b 24d#\
8gn 8e 8cn 8A\	24r
.	24ggnLL 24ccn 24gn\
.	24ggJJ 24cc 24g\
8f# 8d#X 8B 8A\	24r
.	24ff#LL 24b 24f#\
.	24ff#JJ 24b 24f#\
8aJ 8f# 8e\	24r
.	24cccnLL 24ff# 24ccn\
.	24cccJJ 24ff# 24cc\
*clefG2	*
=230	=230
8aL 8f# 8d#X/	24r
.	24bbLL 24ff# 24b\
.	24bbJJ 24ff# 24b\
8ccn 8a/	24r
.	24eeeLL 24cccn 24ee\
.	24eeeJJ 24ccc 24ee\
8b 8a/	24r
.	24ddd#XLL 24bb 24dd#X\
.	24ddd#JJ 24bb 24dd#\
8eeJ 8cc 8a/	24r
.	24gggnLL 24cccn 24ggn\
.	24gggJJ 24ccc 24gg\
=231	=231
8dd#XL 8b 8a/	24r
.	24fff#LL 24bb 24ff#\
.	24fff#JJ 24bb 24ff#\
8aa 8ff# 8ee/	24r
*	*8va
.	24ccccnLL 24fff# 24cccn\
.	24ccccJJ 24fff# 24ccc\
8aa 8ff# 8dd#X/	24r
.	24bbbLL 24fff# 24bb\
.	24bbbJJ 24fff# 24bb\
8aaJ 8ff# 8ee/	24r
.	24ccccLL 24fff# 24ccc\
.	24ccccJJ 24fff# 24ccc\
=232	=232
*Xtuplet	*tuplet
!	!LO:TUP:a:r=4:problem:klamra łukowa
12aaL 12ff# 12dd#X 12b\	12bbbL 12fff# 12bb\
12gg# 12ee#X 12ddn 12b\	12aaa#X 12eee#X 12bb\
12ggn 12een 12cc# 12b\	12aaan 12eeen 12bb\
*	*Xtuplet
12ff# 12dd#X 12ccn 12b\	12ggg#X 12ddd#X 12bb\
12ffn 12dd# 12b\	12gggn 12dddn 12bb\
12eeJ 12cc#X 12b 12a#X\	12fff#J 12ccc# 12bb\
*	*X8va
!!LO:LB:g=original
=233	=233
12dd#XL 12ccn 12b 12a\	12fffnL 12cccn 12bb\
12ddn 12b 12g#\	12eee 12bb\
!LO:SIC:v:n=1:s=12cc#	!
12cc 12b 12a#X 12gn\	12ddd#X 12aa#X\
12ccn 12b 12an 12f#\	12dddn 12aan\
!LO:SIC:v:n=2:s=12g#	!LO:SIC:v:n=1:s=12ccc#
12b 12g 12e#X\	12ccc 12gg#\
12bJ 12a# 12gn 12e#X\	12cccnJ 12ggn\
*clefF4	*
=234	=234
12aL 12f# 12d#X 12B\	12bbL 12ff# 12b\
12g# 12e#X 12dn 12B\	12aa#X 12ee#X 12b\
12gn 12en 12c# 12B\	12aan 12een 12b\
12f# 12d#X 12cn 12B\	12gg# 12dd#X 12b\
12fn 12dn 12B\	12ggn 12ddn 12b\
12eJ 12c 12B 12A#X\	12ff#J 12cc# 12b\
=235	=235
12d#XL 12cn 12B 12A\	12ffnL 12ccn 12b\
12dn 12B 12G#\	12ee 12b\
!LO:SIC:v:n=1:s=12c#	!
12c 12B 12A# 12Gn\	12dd#X 12a#X\
12cn 12B 12A 12F#\	12ddn 12an\
!LO:SIC:v:n=2:s=12G#	!LO:SIC:v:n=1:s=12cc#
12B 12G 12E#X\	12cc 12g#\
12BJ 12A#X 12Gn 12En\	12ccnJ 12gn\
=236	=236
12BL 12A 12D#X 12BB\	12bL 12f# 12B\
12B 12A 12D#\	12b 12a 12d#X\
12BB\	12dd#X\
12B 12A 12D#\	12b 12a 12d#\
12FF#\	12ff#\
12BJ 12A 12D#\	12bJ 12a 12d#\
=237	=237
12DD#X/L	12bb\L
12B 12A 12D#X/	12b 12a 12d#X\
12BBB/	12ddd#X\
12B 12A 12D#/	12b 12a 12d#\
12FFF#/	12fff#\
12BJ 12A 12D#/	12bJ 12a 12d#\
!!LO:LB:g=original
=238	=238
8BBBB/	8bbb 8bb\
8BL 8A 8D#X 8BB\	8bL 8a 8d#X\
!LO:TX:t=P:problem:# między nutami	!LO:TX:t=P:problem:# między nutami
8A#X 8Any 8D# 8BB\	8a#X 8any 8d#\
8BJ 8An 8D# 8BB\	8bJ 8an 8d#\
=239	=239
8BL 8A 8D#X 8BB\	8bL 8a 8d#X\
*clefG2	*
8b 8a 8d#X 8B\	8bb 8aa 8dd#X\
8b 8a 8d# 8B\	8bb 8aa 8dd#\
8bJ 8a 8d# 8B\	8bbJ 8aa 8dd#\
=240	=240
8ccn 8a 8e 8B/	8cccnL 8aa 8ee\
*clefF4	*
8cnL 8A 8E 8BB\	8ccn 8a 8e\
8B 8A 8E 8BB\	8b 8a 8e\
8cJ 8A 8E 8BB\	8ccJ 8a 8e\
=241	=241
8cn 8A 8E 8BB\	8ccnL 8a 8e\
*clefG2	*
8ccnL 8a 8e 8B\	8cccn 8aa 8ee\
8cc 8a 8e 8B\	8ddd 8aa 8ee\
8ccJ 8a 8e 8B\	8eeeJ 8aa 8ee\
=242	=242
8b 8a 8d#X 8B\	8bbL 8aa 8dd#X\
*clefF4	*
8BL 8A 8D#X 8BB\	8b 8a 8d#X\
!LO:TX:t=P:problem:# między nutami	!LO:TX:t=P:problem:# między nutami
8A#X 8Any 8D# 8BB\	8a#X 8any 8d#\
8BJ 8An 8D# 8BB\	8bJ 8an 8d#\
!!LO:LB:g=original
=243	=243
8BL 8A 8D#X 8BB\	8bL 8a 8d#X\
*clefG2	*
8b 8a 8d#X 8B\	8bb 8aa 8dd#X\
8b 8a 8d# 8B\	8bb 8aa 8dd#\
8bJ 8a 8d# 8B\	8bbJ 8aa 8dd#\
=244	=244
8ccn 8a 8e 8B\	8cccnL 8aa 8ee\
*clefF4	*
8cnL 8A 8E 8BB\	8ccn 8a 8e\
8B 8A 8E 8BB\	8b 8a 8e\
8cJ 8A 8E 8BB\	8ccJ 8a 8e\
=245	=245
8cnL 8A 8E 8BB\	8ccnL 8a 8e\
*clefG2	*
8ccn 8a 8e 8B\	8gggn 8cccn 8ggn\
8cc 8a 8e 8B\	8eee 8aa 8ee\
8ccJ 8a 8e 8B\	8cccJ 8ee 8ccnX\
=246	=246
8b 8a 8d#X 8B\	8bb 8aa 8dd#X\
*clefF4	*
8BL 8A 8D#X 8BB\	8bL 8a 8d#X\
8cn 8A 8D# 8BB\	8ccn 8a 8d#\
8BJ 8A 8D# 8BB\	8bJ 8a 8d#\
=247	=247
8eL 8cn 8A 8F#\	8eeL 8ccn 8a 8f#\
8d#XJ 8c 8A 8F#\	8dd#X 8cc 8a 8f#\
8eL 8c 8A 8F#\	8ee 8cc 8a 8f#\
8d#J 8c 8A 8F#\	8dd#J 8cc 8a 8f#\
=248	=248
8gnL 8d#X 8cn 8A\	8ggnL 8dd#X 8ccn 8a\
8f#J 8d# 8c 8A\	8ff# 8dd# 8cc 8a\
*clefG2	*
8bL 8f# 8d#X 8cn/	8bb 8ff# 8dd# 8cc\
8aJ 8f# 8d# 8c/	8bbJ 8ff# 8dd# 8cc\
!!LO:PB:g=original
=249	=249
8bL 8f# 8d#X 8cn/	8bbL 8ff# 8dd#X 8ccn\
8a 8f# 8d# 8c/	8aa 8ff# 8dd# 8cc\
!	!LO:TX:b:t=↓
8b 8f# 8d# 8c/	8bb 8ff# 8dd# 8cc\
8aJ 8f# 8d# 8c/	8aaJ 8ff# 8dd# 8cc\
*clefF4	*
=250	=250
64qqBBB/LLLL	.
64qqBB/	.
64qqD#X/	.
64qqF#/	.
64qqA/	.
64qqcn/	.
64qqd#X/	.
64qqf#/	.
64qqa/JJJJ	.
48bb>LLL 48ff#> 48dd#X> 48ccn>\	48aaLL 48ff#/
48bb> 48dd#> 48cc>\	48aa 48ff#/
48bb>JJJ 48dd#> 48cc>\	48aaJJ 48ff#/
!	!LO:TX:a:i:t=tremolo.
*tremolo	*
64bb>LLLL 64dd#> 64cc>\	16ryy
64aa> 64ff#>\	.
64bb> 64dd#> 64cc>\	.
64aa>JJJJ 64ff#>\	.
*Xtremolo	*
16gg#X>\LL	8ryy
16aa>\JJ	.
*clefG2	*
.	32qqff#\
8.aL 8.f# 8.cn/	8.fff#L 8.aa 8.ff#\
16a#X/Jk	16eeeJk 16aa#X 16ee\
=251	=251
8b 8f# 8B/	8ddd#X 8bb 8dd#X\
*clefF4	*
8BB 8BBB;\	8B;</
8BB 8BBB;\	8B;</
8Cn 8CCn;\	8cn;</
=252	=252
8BB 8BBB;\	8B;</
8AA 8AAA;\	8A;</
8FF# 8FFF#;\	8F#;</
8BB 8BBB;\	8B;</
!!LO:LB:g=original
=253||	=253||
*k[f#]	*k[f#]
*^	*
!LO:TX:t=P:problem:mixed beam	!	!
8ryy	8EEL 8EEE/	8E/
!	!	!LO:TX:t=P:problem:skreślona nuta
4.g 4.e/	8B\	8bbL 8ee 8b\
.	8c\	8aa#X 8a#X\
.	8B\J	8bbJ 8b\
=254	=254	=254
8ryy	8E\L	8r
!	!	!LO:TX:t=P:problem:skreślona nuta
4.g 4.e/	8c\	8cccnL 8ee 8ccn\
.	8d\	8bb 8b\
.	8c\J	8cccJ 8cc\
*v	*v	*
=255	=255
8E\L	8cccnL 8ccn\
8g 8c\	8gggn 8ccc 8gg\
8cc 8e\	8eee 8ee\
8gJ 8c\	8cccJ 8cc\
=256	=256
*^	*
!LO:TX:t=P:problem:mixed beam	!	!
8ryy	8EE/L	8cccnL 8ccn\
4.g 4.e/	8B\	8bb 8ggn 8bm\
.	8c\	8aa#X 8a#X\
.	8B\J	8bbJ 8b\
*v	*v	*
=257	=257
!LO:TX:t=P:problem:mixed beam	!
8DD#X/L	8bbL 8b\
8f# 8B\	8ddd#X 8dd#X\
8a 8d#X\	8fff# 8bb 8ff#\
8f#J 8A\	8aaJ 8a\
=258	=258
!LO:TX:t=P:problem:mixed beam	!
8EL 8EE/	8ggnL 8ee 8gn\
8e 8G\	8bb 8b\
8g 8B\	8eee 8gg 8ee\
8eJ 8G\	8ggJ 8g\
!!LO:LB:g=original
=259	=259
8AA\L	8ff#L 8f#\
8eJ 8c 8F#\	8ccc 8ee 8cc\
8BB\L	8bb 8b\
8d#XJ 8B 8A\	8dd#XJ 8b 8d#X\
=260	=260
!LO:TX:t=P:problem:mixed beam	!
8EE/L	8eeL 8b 8e\
8G\	8ff# 8f#\
8e 8B\	8gg 8ee 8g\
8f#\J	8aa#XJ 8a#X\
=261	=261
*^	*
8ryy	8E\L	8r
4.g 4.e/	8B\	8bbL 8gg 8b\
.	8c\	8aa#X 8a#X\
.	8B\J	8bbJ 8b\
=262	=262	=262
8ryy	8E\L	8r
4.g 4.e/	8c\	8cccL 8gg 8cc\
.	8d\	8bb 8b\
.	8c\J	8cccJ 8cc\
*v	*v	*
=263	=263
!LO:TX:t=P:problem:mixed beam	!
8EE/L	8cccL 8cc\
8g 8c\	8gggJ 8ccc 8gg\
8cc 8e\	16fff#LL 16ff#\
.	16eee 16ee\
8gJ 8c\	16ddd 16gg 16dd\
.	16cccJJ 16cc\
=264	=264
*^	*
8ryy	8E\L	16cccLL 16cc\
.	.	16bbJJ 16b\
4.g 4.e/	8B\	16bbLL 16gg 16b\
.	.	16aa#XJJ 16a#X\
.	8c\	16aa#LL 16a#\
.	.	16bbJJ 16b\
.	8B\J	16bbLL 16b\
.	.	16aa#JJ 16a#\
*v	*v	*
!!LO:LB:g=original
=265	=265
!LO:TX:t=P:problem:mixed beam	!
8DD#X/L	16aa#XLL 16a#X\
.	16bbJJ 16b\
8f# 8B\	16bbLL 16b\
.	16ddd#XJJ 16dd#X\
8a 8d#X\	16ddd#LL 16dd#\
.	16fff#JJ 16ff#\
8f#J 8A\	16fff#LL 16ff#\
.	16aa#JJ 16a#\
=266	=266
!LO:TX:t=P:problem:mixed beam	!
8EE/L	16aaLL 16a\
.	16gg 16g\
8e 8G\	16bb 16b\
.	16ddd#XJJ 16dd#X\
8g 8B\	16ddd#LL 16dd#\
.	16eeeJJ 16ee\
8eJ 8G\	16eeeLL 16ee\
.	16ggJJ 16g\
=267	=267
!LO:TX:t=P:problem:mixed beam	!
8AA/L	16ggLL 16g\
.	16ffn 16fn\
8cJ 8A 8Fn\	16aa 16a\
.	16cccJJ 16cc\
8BB\L	16cccLL 16cc\
.	16bbJJ 16b\
8d#XJ 8A 8D#X\	16bbLL 16b\
.	16dd#XJJ 16d#X\
=268	=268
8E 8EE/	8ee 8e\
*clefG2	*
8bL 8g 8e/	24ee'\LL
.	24gg'\
.	24bb'\JJ
8a 8f# 8d 8F#/	24dd'\LL
.	24ff#'\
.	24bb'\JJ
8a#XJ 8e 8c/	24cc#X'\LL
.	24ee'\
.	24aa#X'\JJ
*clefF4	*
=269	=269
8F# 8BB\	24b'\LL
.	24dd'\
.	24bb'\JJ
*clefG2	*
8bL 8g 8e/	24ee'\LL
.	24gg'\
.	24bb'\JJ
8a 8f# 8d 8F#/	24dd'\LL
.	24ff#'\
.	24bb'\JJ
8a#XJ 8e 8c/	24cc#X'\LL
.	24ee'\
.	24aa#X'\JJ
*clefF4	*
!!LO:LB:g=original
=270	=270
8dL 8F# 8BB\	24b'\LL
.	24dd'\
.	24bb'\JJ
8e 8c#X\	24cc#X'\LL
.	24ee'\
.	24bb'\JJ
8f# 8d\	24dd'\LL
.	24ff#'\
.	24bb'\JJ
8bJ 8e#X 8G\	24ee#X'\LL
.	24ggn'\
.	24bb'\JJ
=271	=271
8F#\L	24ff#'\LL
.	24bb'\
.	24ddd'\JJ
8bJ 8f# 8d\	24fff#'\LL
.	24fff#'\
.	24fff#'\JJ
!LO:TX:t=P:problem:mixed beam	!
8FF#/L	24ff#'\LL
.	24aa#X'\
.	24ccc'\JJ
8a#XJ 8e 8A#X\	24fff#'\LL
.	24fff#'\
.	24fff#'\JJ
=272	=272
8BB\	8bb'\
8bL 8g 8e\	24ee'\LL
.	24gg'\
.	24bb'\JJ
8b 8f# 8d 8F#\	24dd'\LL
.	24ff#'\
.	24bb'\JJ
8a#XJ 8e 8c\	24cc#X'\LL
.	24ee'\
.	24aa#X'\JJ
=273	=273
8d 8F# 8BB\	24b'\LL
.	24dd'\
.	24bb'\JJ
8bL 8g 8e\	24ee'\LL
.	24gg'\
.	24bb'\JJ
8b 8f# 8d 8F#\	24dd'\LL
.	24ff#'\
.	24bb'\JJ
8a#XJ 8e 8c\	24cc#X'\LL
.	24ee'\
.	24aa#X'\JJ
=274	=274
8dL 8F# 8BB\	24b'\LL
.	24dd'\
.	24bb'\JJ
8e 8c#X\	24cc#X'\LL
.	24ee'\
.	24bb'\JJ
8f# 8d\	24dd'\LL
.	24ff#'\
.	24bb'\JJ
8bJ 8e#X 8G\	24ee#X'\LL
.	24ggn'\
.	24bb'\JJ
!!LO:LB:g=original
=275	=275
8F#\L	24ff#'\LL
.	24bb'\
.	24ddd'\JJ
8bJ 8f# 8d\	24fff#'\LL
.	24fff#'\
.	24fff#'\JJ
8FF#\L	24ff#'\LL
.	24aa#X'\
.	24ccc'\JJ
8a#XJ 8e 8A#X\	24fff#'\LL
.	24fff#'\
.	24fff#'\JJ
=276	=276
24bLL 24B\	24bb'\LL
24a#X\	24bb 24aa#X'\
24an\	24bb 24aan'\
24g#X\	24bb 24gg#X'\
24gn\	24bb 24ggn'\
24f#\	24bb 24ff#'\
24fn\	24bb 24ffn'\
24e\	24bb 24ee'\
24d#X\	24bb 24dd#X'\
24dn\	24bb 24ddn'\
!LO:SIC:v:s=24c#\	!
24c\	24bb 24cc#X'\
24cn\JJ	24bbJJ 24ccn'\
=277	=277
24BLL 24BB\	24b'\LL
24A#X\	24b 24a#X'\
24An\	24b 24an'\
24G#X\	24b 24g#X'\
24Gn\	24b 24gn'\
24F#\	24b 24f#'\
24Fn\	24b 24fn'\
24E\	24b 24e'\
24D#X\	24b 24d#X'\
24Dn\	24b 24dn'\
24C#X\	24b 24c#X'\
24Cn\JJ	24bJJ 24cn'\
!!LO:PB:g=original
=278	=278
!	!LO:TX:t=P:problem:mixed beam
4BB 4BBB/	24B/LL
.	24b 24a\
.	24cc\
.	24b 24a\
.	24dd#X\
.	24b 24a\
[4d#X [4B [4A\	24ff#\
.	24b 24a\
.	24bb\
.	24b 24a\
.	24ddd#X\
.	24bJJ 24a\
=279	=279
*2\left	*
!	!LO:TX:t=P:problem:skreślona nuta
2d#X] 2B] 2A\]	24fff#\LL
.	24b 24a\
.	24bbb\
.	24b 24a\
.	24bbb\
.	24ccn 24a\
.	24bbb\
.	24cc#X 24a\
.	24bbb\
.	24dd 24a\
.	24bbb\
.	24dd#XJJ 24a\
=280	=280
*^	*^
8ryy	8EL 8EE\	8ryy	8eeL 8g\
4.g 4.e/	8B\	4.ee/	8bb 8b\
.	8c\	.	8aa#X 8a#X\
.	8B\J	.	8bbJ 8b\
*	*	*v	*v
=281	=281	=281
8ryy	8E\L	8r
*	*	*^
4.g 4.e/	8c\	4.gg/	8cccL 8cc\
.	8d\	.	8bb 8b\
.	8c\J	.	8cccJ 8cc\
*v	*v	*	*
*	*v	*v
=282	=282
!LO:TX:t=P:problem:mixed beam	!
8EE/L	8cccL 8cc\
8g 8c\	8ggg 8ccc 8gg\
8cc 8e\	8eee 8ee\
8gJ 8c\	8cccJ 8cc\
!!LO:LB:g=original
=283	=283
*^	*
8ryy	8E\L	8cccL 8cc\
4.g 4.e/	8B\	8bb 8gg 8bm\
.	8c\	8aa#X 8a#X\
.	8B\J	8bbJ 8b\
*v	*v	*
=284	=284
!LO:TX:t=P:problem:mixed beam	!
8DD#X/L	8bbL 8b\
8f# 8B\	8ddd#X 8dd#X\
8a 8d#X\	8fff# 8bb 8ff#\
8f#J 8A\	8aaJ 8a\
=285	=285
!LO:TX:t=P:problem:mixed beam	!
8EE/L	8ggL 8ee 8g\
8e 8G\	8bb 8b\
8g 8B\	8eee 8gg 8ee\
8eJ 8G\	8ggJ 8g\
=286	=286
8AA\L	8ff#L 8f#\
8eJ 8c 8F#\	8ccc 8ee 8cc\
8BB\L	8bb 8b\
8d#XJ 8B 8A\	8dd#XJ 8b 8d#X\
=287	=287
!LO:TX:t=P:problem:mixed beam	!
8EE/L	8eeL 8b 8e\
8G\	8ff# 8f#\
8e 8B\	8gg 8ee 8g\
8f#\J	8aa#XJ 8a#X\
=288	=288
*^	*
8ryy	8E\L	8r
4.g 4.e/	8B\	16bbLL 16gg 16b\
.	.	16aa#X\JJ
.	8c\	16aa#LL 16gg 16a#X\
.	.	16ccc\
.	8B\J	16bb 16gg 16b\
.	.	16eee\JJ
!!LO:LB:g=original
=289	=289	=289
8ryy	8E\L	8r
4.g 4.e/	8c\	16cccLL 16gg 16cc\
.	.	16bb\JJ
.	8d\	16bbLL 16gg 16b\
.	.	16ddd\
.	8c\J	16ccc 16gg 16cc\
.	.	16eee\JJ
*v	*v	*
=290	=290
!LO:TX:t=P:problem:mixed beam	!
8EE/L	16cccM\LL
.	16bb\
8g 8c\	16ccc 16gg 16cc\
.	16ggg 16gg\
8cc 8e\	16fff# 16ff#\
.	16eee 16ee\
8gJ 8c\	16ddd 16gg 16dd\
.	16cccJJ 16cc\
=291	=291
*^	*
8ryy	8E\L	16cccLL 16cc\
.	.	16bbJJ 16b\
4.g 4.e/	8B\	16bbLL 16b\
.	.	16aa#XJJ 16a#X\
.	8c\	16aa#LL 16a#\
.	.	16bbJJ 16b\
.	8B\J	16bbLL 16b\
.	.	16aa#JJ 16a#\
*v	*v	*
=292	=292
!LO:TX:t=P:problem:mixed beam	!
8D# 8DD#X/L	16aa#XLL 16a#X\
.	16bb 16b\
8f# 8B\	16bb 16b\
.	16ddd#XJJ 16dd#X\
8a 8d#X\	16ddd#LL 16dd#\
.	16fff# 16ff#\
8f#J 8A\	16fff# 16ff#\
.	16aa#JJ 16a#\
=293	=293
!LO:TX:t=P:problem:mixed beam	!
8E 8EE/L	16aaLL 16a\
.	16gg 16g\
8e 8G\	16bb 16b\
.	16ddd#XJJ 16dd#X\
8g 8B\	16ddd#LL 16dd#\
.	16eee 16ee\
8eJ 8G\	16eee 16ee\
.	16ggJJ 16g\
!!LO:LB:g=original
=294	=294
8AA\L	16ggLL 16g\
.	16ff# 16f#\
8cJ 8A 8F#\	16aa 16a\
.	16cccJJ 16cc\
8BB\L	16cccLL 16cc\
.	16bb 16b\
8d#XJ 8A 8D#X\	16bb 16b\
.	16dd#XJJ 16d#X\
=295	=295
8CC/	16dd#XLL 16d#X\
.	16ee 16e\
!LO:TX:t=P:problem:mixed beam	!
8C/L	16ee 16e\
.	16ff#JJ 16f#\
8e 8A#X 8E\	16ff#LL 16f#\
.	16gg 16g\
8C\J	16gg 16g\
.	16a#XJJ 16A#X\
=296	=296
!LO:TX:t=P:problem:mixed beam	!
8BBB/L	16a#XLL 16A#X\
.	16b 16B\
8GJ 8E 8BB\	16b 16B\
.	16ccJJ 16c\
!LO:TX:t=P:problem:mixed beam	!
8BBBL 8BBBB/	16ccLL 16c\
.	16b 16B\
8AJ 8D#X\	16b 16B\
.	16d#XJJ 16D#X\
=297	=297
*^	*
8ryy	8EE 8EEE/	8e 8E/
4.e/	8cL 8A\	24a'\LL
.	.	24cc'\
.	.	24ee'\JJ
.	8B 8G\	24g'\LL
.	.	24b'\
.	.	24ee'\JJ
.	8AJ 8F#\	24f#'\LL
.	.	24a'\
.	.	24ee'\JJ
=298	=298	=298
!LO:TX:t=P:problem:mixed beam	!	!
8ryy	8EE/L	24e'\LL
.	.	24g'\
.	.	24ee'\JJ
4.e/	8c 8A\	24a'\LL
.	.	24cc'\
.	.	24ee'\JJ
.	8B 8G\	24g'\LL
.	.	24b'\
.	.	24ee'\JJ
.	8AJ 8F#\	24f#'\LL
.	.	24a'\
.	.	24ee'\JJ
*v	*v	*
!!LO:LB:g=original
=299	=299
8GL 8BB 8EE\	24e\LL
.	24g\
.	24ee\JJ
8A 8F#\	24f#\LL
.	24a\
.	24ff#\JJ
8B 8G\	24g\LL
.	24b\
.	24gg\JJ
8eJ 8A#X 8C\	24a#X\LL
.	24gg\
.	24aa#X\JJ
=300	=300
8BB\L	24a#X\LL
.	24gg\
.	24aa#X\JJ
8g 8e 8B\	24b\LL
.	24gg\
.	24bb\JJ
8a 8d#X\	24cc\LL
.	24aa#\
.	24ccc\JJ
8AJ 8BB\	24d#X\LL
.	24a#\
.	24dd#X\JJ
=301	=301
*^	*
!LO:TX:t=P:problem:mixed beam	!	!
8ryy	8EE/L	24e\LL
.	.	24g\
.	.	24ee\JJ
4.e/	8c 8A\	24a\LL
.	.	24cc\
.	.	24ee\JJ
.	8B 8G\	24g\LL
.	.	24b\
.	.	24ee\JJ
.	8AJ 8F#\	24f#\LL
.	.	24a\
.	.	24ee\JJ
=302	=302	=302
8ryy	8BBL 8EE\	24e\LL
.	.	24g\
.	.	24ee\JJ
4.e/	8c 8A\	24a\LL
.	.	24cc\
.	.	24ee\JJ
.	8B 8G\	24g\LL
.	.	24b\
.	.	24ee\JJ
.	8AJ 8F#\	24f#\LL
.	.	24a\
.	.	24ee\JJ
*v	*v	*
=303	=303
8GL 8BB 8EE\	24e\LL
.	24g\
.	24ee\JJ
8A 8F#\	24f#\LL
.	24a\
.	24ff#\JJ
8B 8G\	24g\LL
.	24b\
.	24gg\JJ
8eJ 8A#X 8C\	24a#X\LL
.	24gg\
.	24aa#X\JJ
!!LO:LB:g=original
=304	=304
8BB\L	24a#X\LL
.	24gg\
.	24aa#X\JJ
8g 8e 8B\	24b\LL
.	24gg\
.	24bb\JJ
8a 8d#X\	24cc\LL
.	24aa#\
.	24ccc\JJ
8d#X 8AJ 8BB\	24dd#X\LL
.	24aa#\
.	24ddd#X\JJ
=305	=305
24eLL 24E\	24eeeLL 24ee\
24d#X\	24ddd#X 24ee\
24dn\	24dddn 24ee\
24c#X\	24ccc#X 24ee\
24cn\	24cccn 24ee\
24B\	24bb 24ee\
24A#X\	24aa#X 24ee\
24An\	24aan 24ee\
24G#X\	24gg#X 24ee\
24Gn\	24ggn 24ee\
24F#\	24ff# 24ee\
24Fn\JJ	24ffnJJ 24ee\
=306	=306
24ELL 24EE\	24eeLL 24e\
24D#X\	24dd#X 24e\
24Dn\	24ddn 24e\
24C#X\	24cc#X 24e\
24Cn\	24ccn 24e\
24BB\	24b 24e\
24AA#X\	24a#X 24e\
24AAn\	24an 24e\
24GG#X\	24g#X 24e\
24GGn\	24gn 24e\
24FF#\	24f# 24e\
24FFn\JJ	24fnJJ 24e\
=307	=307
24EELL 24EEE\	24e\
24D#X 24DD#X\	12r
24EJJ 24EE\	.
24r	24e 24B 24G 24E/
24d#XLL 24D#\	12r
24eJJ 24E\	.
24r	24g 24e 24B 24G/
24D#LL 24DD#/	12r
24EJJ 24EE/	.
!	!LO:N:vis=12
24r	24b 24g 24e 24B/
24d#LL 24D#\	12r
24eJJ 24E\	.
!!LO:PB:g=original
=308	=308
24r	24ee 24b 24g 24e\
24D#XLL 24DD#X/	12r
24EJJ 24EE/	.
24r	24gg 24ee 24b 24g\
24d#XLL 24D#\	12r
24eJJ 24E\	.
24r	24bb 24gg 24ee 24b\
24D#LL 24DD#/	12r
24EJJ 24EE/	.
24r	24eee 24bb 24gg 24ee\
24d#LL 24D#\	12r
24eJJ 24E\	.
=309	=309
24gLL 24G\	24gggLL 24gg\
24f#\	24fff# 24gg\
24fn\	24fffn 24gg\
24e\	24eee 24gg\
24e-X\	24eee-X 24gg\
24d\	24ddd 24gg\
!	!LO:SIC:v:n=1:s=24ccc#
24c#X\	24ccc 24gg\
24cn\	24cccn 24gg\
24B\	24bb 24gg\
24B-X\	24bb-X 24gg\
24A\	24aa 24gg\
24A-X\JJ	24aa-XJJ 24gg\
=310	=310
24GLL 24GG\	24ggLL 24g\
24F#\	24ff# 24g\
24Fn\	24ffn 24g\
24E\	24ee 24g\
24E-X\	24ee-X 24g\
24D\	24dd 24g\
!	!LO:SIC:v:n=1:s=24cc#
24C#X\	24cc 24g\
24Cn\	24ccn 24g\
24BB\	24b 24g\
24BB-X\	24b-X 24g\
24AA\	24a 24g\
24AA-X\JJ	24a-XJJ 24g\
!!LO:LB:g=original
=311	=311
24GGLL 24GGG/	24g/
24F# 24FF#/	12r
24GJJ 24GG/	.
24r	24g 24d 24B 24G/
24f#LL 24F#\	12r
24gJJ 24G\	.
24r	24b 24g 24d 24B/
24F#LL 24FF#\	12r
24GJJ 24GG\	.
24r	24dd 24b 24g 24d/
24f#LL 24F#\	12r
24gJJ 24G\	.
=312	=312
24r	24gg 24dd 24b 24g\
24F#LL 24FF#\	12r
24GJJ 24GG\	.
24r	24bb 24gg 24dd 24b\
24f#LL 24F#\	12r
24gJJ 24G\	.
24r	24ddd 24bb 24gg 24dd\
24F#LL 24FF#\	12r
24GJJ 24GG\	.
24r	24ggg 24ddd 24bb 24gg\
24f#LL 24F#\	12r
24gJJ 24G\	.
=313	=313
!LO:TX:t=P:problem:mixed beam	!
8GGL 8GGG/	8r
8G 8D 8GG\	8bL 8g 8B/
8G 8C#X 8GG\	8a#X 8g 8A#X/
8GJ 8D 8GG\	8bJ 8g 8B/
=314	=314
!	!LO:TX:t=P:problem:mixed beam
8GL 8C#X 8GG\	8a#XL 8g 8A#X/
*clefG2	*
8cc#X 8g 8c#X\	8eee 8aa#X 8ee\
8cc# 8g 8c#\	8eee 8aa# 8ee\
8cc#J 8g 8c#\	8eeeJ 8aa# 8ee\
*clefF4	*
=315	=315
8GG 8GGG/	8r
8GL 8D 8GG\	8bL 8g 8B/
8G 8C#X 8GG\	8a#X 8g 8A#X/
8GJ 8D 8GG\	8bJ 8g 8B/
!!LO:LB:g=original
=316	=316
8G 8C#X 8GG\	8a#XL 8g 8A#X/
*	*clefF4
8CC#XL 8GGG 8CCC#X/	8E 8AA#X 8EE/
8CC# 8GGG 8CCC#/	8E 8AA# 8EE/
8CC#J 8GGG 8CCC#/	8EJ 8AA# 8EE/
*	*clefG2
=317	=317
!LO:TX:t=P:problem:mixed beam	!
8GGL 8GGG/	24bLL 24g\
.	24cc 24a-X\
.	24cc#X 24an\
8B 8D\	24dd 24b-X\
.	24dd#X 24bn\
!	!LO:SIC:v:n=2:s=24ccn
.	24ee 24cc#\
8g 8B\	24ee#X 24cc#X\
.	24ff# 24dd#\
.	24gg 24ee-X\
8BJ 8D\	24gg#X 24een\
.	24aa 24ffn\
.	24aa#XJJ 24ff#X\
=318	=318
8GG\L	24bbLL 24gg\
.	24aa#X 24ff#\
.	24aan 24ffn\
8c 8E-X\	24gg#X 24ee\
.	24ggn 24ee-X\
.	24ff 24dd\
8g 8c\	24ee#X 24cc#X\
.	24een 24ccn\
.	24dd#X 24b\
8cJ 8E-\	24ddn 24b-X\
.	24cc#X 24a\
.	24ccnJJ 24a-X\
=319	=319
8GG\L	16bLL 16g\
.	16a#X 16f#\
8dJ 8B 8G 8D\	16b 16g\
.	16bJJ 16g\
!	!LO:SIC:v:n=2:s=16an\
8GG\L	16ccLL 16a#\
.	16b 16g#X\
!	!LO:SIC:v:n=2:s=16an\
8e-XJ 8c 8A 8G 8E-X\	16cc 16a#\
!	!LO:SIC:v:n=2:s=16an\
.	16ccJJ 16a#\
!!LO:LB:g=original
=320	=320
8GG\L	16cc#XLL 16a#X\
.	16ccn 16an\
8eJ 8c#X 8A#X 8G 8E\	16cc#X 16a#X\
.	16cc#JJ 16a#\
8GG\L	16ddLL 16an\
.	16cc# 16g#X\
8f#J 8d 8cn 8An 8F#\	16dd 16a\
.	16ddJJ 16a\
=321	=321
!LO:TX:t=P:problem:mixed beam	!
8GG/L	8g 8B\
8g 8d 8G\	8bbL 8gg 8b\
8g 8c#X 8G\	8aa#X 8gg 8a#X\
8gJ 8d 8G\	8bbJ 8gg 8b\
=322	=322
8g 8c#X 8G\	8aa#XL 8gg 8a#X\
*clefG2	*8va
8ccc#XL 8gg 8cc#X\	8eeee 8aaa# 8eee\
8ccc# 8gg 8cc#\	8eeee 8aaa# 8eee\
8ccc#J 8gg 8cc#\	8eeeeJ 8aaa# 8eee\
*clefF4	*X8va
=323	=323
8GG\L	8r
8g 8d 8G\	8bbL 8gg 8b\
8g 8c#X 8G\	8aa#X 8gg 8a#X\
8gJ 8d 8G\	8bbJ 8gg 8b\
=324	=324
!	!LO:TX:t=P:problem:mixed beam
8g 8c#X 8G\	8aa#XL 8gg 8a#X\
8C#XL 8GG 8CC#X/	8e 8A#X 8E/
8C# 8GG 8CC#/	8e 8A# 8E/
8C#J 8GG 8CC#/	8eJ 8A# 8E/
!!LO:LB:g=original
=325	=325
8GG\	24bbLL 24gg\
.	24ccc 24aa-X\
.	24ccc#X 24aan\
*clefG2	*
8gL 8B/	24ddd 24bb-X\
.	24ddd#X 24bbn\
!	!LO:SIC:v:n=2:s=24cccn
.	24eee 24ccc#\
8dd 8g/	24eee#X 24ccc#X\
.	24fff# 24ddd#\
.	24ggg 24eee-X\
8gJ 8B/	24ggg#X 24eeen\
.	24aaa 24fffn\
.	24aaa#XJJ 24fff#X\
=326	=326
8G/L	24bbbLL 24ggg\
.	24aaa#X 24fff#\
.	24aaan 24fffn\
8g 8c/	24ggg#X 24eee\
.	24gggn 24eee-X\
.	24fff 24ddd\
8ee-X 8e-X/	24eee#X 24ccc#X\
.	24eeen 24cccn\
.	24ddd#X 24bb\
8gJ 8c/	24dddn 24bb-X\
!	!LO:SIC:v:n=1:s=24cccn
.	24ccc 24aa\
.	24cccnXJJ 24aa-X\
=327	=327
8G/L	16bbLL 16gg\
.	16aa#X 16ff#\
8ddJ 8g 8d 8B/	16bb 16gg\
.	16bbJJ 16gg\
!	!LO:SIC:v:n=2:s=16aan\
8G/L	16cccLL 16aa#\
.	16bb 16gg#X\
!	!LO:SIC:v:n=2:s=16aan\
8ee-XJ 8g 8e-X 8c/	16ccc 16aa#\
!	!LO:SIC:v:n=2:s=16aan\
.	16cccJJ 16aa#\
=328	=328
8G/L	16ccc#XLL 16aa#X\
.	16cccn 16aan\
8eeJ 8a#X 8g 8e 8c#X/	16ccc#X 16aa#X\
.	16ccc#JJ 16aa#\
!	!LO:SIC:v:n=2:s=16aan\
8G/L	16dddLL 16aa#\
.	16ccc# 16gg#X\
!	!LO:SIC:v:n=2:s=16aan\
8ddJ 8an 8f# 8d 8cn/	16ddd 16aa#\
!	!LO:SIC:v:n=2:s=16aan\
.	16dddJJ 16aa#\
!!LO:LB:g=original
=329	=329
*clefF4	*
*	*^
16GGLL 16GGG/	[4bb/	4bb 4gg 4dd 4g\
16FF# 16FFF#/	.	.
16GG 16GGG/	.	.
16GGJJ 16GGG/	.	.
16GG#XLL 16GGG#X/	4bb/]	4bb 4ffn 4dd 4fn\
16FF##X 16FFF##X/	.	.
16GG# 16GGG#/	.	.
16GG#JJ 16GGG#/	.	.
=330	=330	=330
16AALL 16AAA/	8dd/L	4aa 4ee 4dd 4e\
16GG#X 16GGG#X/	.	.
16AA 16AAA/	8cc#X/J	.
16AAJJ 16AAA/	.	.
16AA#XLL 16AAA#X/	4gg 4ee 4ccn 4e\	4ryy
16GG##X 16GGG##X/	.	.
16AA# 16AAA#/	.	.
16AA#JJ 16AAA#/	.	.
*	*v	*v
=331	=331
16BBLL 16BBB/	[4gg [4ee 4b [4e\
16AA#X 16AAA#X/	.
16BB 16BBB/	.
16BBJJ 16BBB/	.
16CLL 16CC/	4gg] 4ee] 4a#X 4e\]
16BB 16BBB/	.
16C 16CC/	.
16CJJ 16CC/	.
=332	=332
*	*^
16C#XLL 16CC#X/	8ff#/L	4ee 4a#X 4e\
16BB#X 16BBB#X/	.	.
16C# 16CC#/	8ee#X/J	.
16C#JJ 16CC#/	.	.
16DLL 16DD/	4ff#/	4dd 4b 4d\
16C# 16CC#/	.	.
16D 16DD/	.	.
16DJJ 16DD/	.	.
*	*v	*v
!!LO:PB:g=original
=333	=333
16ELL 16EE\	4ee 4cc#X 4g 4c#X\
16D#X 16DD#X\	.
16E 16EE\	.
16EJJ 16EE\	.
16E#XLL 16EE#X\	4dd 4b 4g#X 4B\
16D##X 16DD##X\	.
16E# 16EE#\	.
16E#JJ 16EE#\	.
=334	=334
16F#LL 16FF#/	4cc 4b 4f# 4B\
16E#X 16EE#X/	.
16F# 16FF#/	.
16F#JJ 16FF#/	.
16FF#LL 16FFF#/	4cc 4a#X 4e 4A#X\
16EE# 16EEE#X/	.
16FF# 16FFF#/	.
16FF#JJ 16FFF#/	.
=335	=335
8BBB 8BBBB/	8bL 8f# 8d 8B\
8f#L 8d 8B 8F#\	8bb 8ff# 8b\
8e#X 8d 8B 8E#X\	8bb 8ee#X 8b\
8f#J 8d 8B 8F#\	8bbJ 8ff# 8b\
=336	=336
8gL 8e 8B 8G\	8bbL 8gg 8b\
*clefG2	*8va
8gg 8ee 8b 8g\	8bbb 8ggg 8bb\
8gg 8ee 8b 8g\	8bbb 8ggg 8bb\
8ggJ 8ee 8b 8g\	8bbbJ 8ggg 8bb\
*clefF4	*X8va
=337	=337
8BB\L	8r
8f# 8d 8B 8F#\	8bbL 8ff# 8b\
8e#X 8d 8B 8E#X\	8bb 8ee#X 8b\
8f#J 8d 8B 8F#\	8bbJ 8ff# 8b\
!!LO:LB:g=original
=338	=338
!	!LO:TX:t=P:problem:mixed beam
8eL 8A#X 8F#\	8ff#L 8cc#X 8f#\
8E 8AA#X 8FF#\	8f#< 8c< 8F#</
8E 8AA# 8FF#\	8f#< 8c< 8F#</
8EJ 8AA# 8FF#\	8f#<J 8c< 8F#</
=339	=339
!LO:TX:t=P:problem:mixed beam	!
8BBB/L	24bLL 24d\
.	24b#X 24d#X\
.	24cc#X 24e\
8F# 8BB\	24dd 24fn\
.	24dd#X 24f#X\
.	24ee 24g\
!LO:TX:t=P:problem:skreślona nuta	!
8d 8F#\	24ee#X 24g#X\
.	24ff# 24a\
.	24ff##X 24a#X\
8F#J 8BB\	24gg#X 24b#\
!	!LO:SIC:v:n=2:s=24ccn\
.	24aa 24cc#\
.	24aa#XJJ 24cc#\
=340	=340
!LO:TX:t=P:problem:mixed beam	!
8BBB/L	24bbLL 24dd\
.	24aa#X 24cc#X\
.	24aan 24ccn\
8E#X 8BB\	24gg#X 24b\
.	24ff##X 24a#X\
!	!LO:N:n=1:acc=n#
.	24ff#X 24an\
!LO:TX:t=P:problem:skreślona nuta	!
8d 8E#\	24ee#X 24g#X\
.	24een 24gn\
.	24dd#X 24f#\
8E#J 8BB\	24ddn 24fn\
.	24cc#X 24e\
.	24b#XJJ 24d#X\
=341	=341
!LO:TX:t=P:problem:mixed beam	!
8BBB/L	16bnLL 16dn\
.	16a#X 16c#X\
8BJ 8F# 8D\	16b 16d\
.	16bJJ 16d\
8BB\L	16ccLL 16e\
.	16b 16d#X\
8cJ 8G 8E\	16cc 16e\
.	16ccJJ 16e\
!!LO:LB:g=original
=342	=342
8BB\L	16cc#XLL 16e\
.	16b#X 16d#X\
8c#XJ 8G 8E\	16cc# 16e\
.	16cc#JJ 16e\
8BB-X\L	16ddLL 16fn\
.	16cc# 16e\
8dJ 8G#X 8Fn\	16dd 16f\
.	16ddJJ 16f\
=343	=343
8F# 8AA 8DD\	8dd 8f#\
*clefG2	*
8ff#L 8a 8f#/	8dddL 8aa 8dd\
8ee#X 8g#X 8e#X/	8ddd 8gg#X 8dd\
8ff#XJ 8a 8f#/	8dddJ 8aa 8dd\
=344	=344
8ee#XL 8g 8e#X\	8dddL 8gg#X 8dd\
*	*8va
8eee#X 8gg 8ee#\	8dddd 8ggg# 8ddd\
8eee# 8gg 8ee#\	8dddd 8ggg# 8ddd\
8eee#J 8gg 8ee#\	8ddddJ 8ggg# 8ddd\
*	*X8va
=345	=345
8D/	8r
8ff#L 8a 8f#\	8dddL 8aa 8dd\
8ee#X 8g#X 8e#X\	8ddd 8gg#X 8dd\
8ff#J 8a 8f#\	8dddJ 8aa 8dd\
=346	=346
8ee#XL 8g 8e#X\	8dddL 8gg#X 8dd\
*clefF4	*
8e#X 8G#X 8E#X\	8dd 8g#X 8d\
8e# 8G# 8E#\	8dd 8g# 8d\
8e#J 8G# 8E#\	8ddJ 8g# 8d\
!!LO:LB:g=original
=347	=347
!LO:TX:t=P:problem:mixed beam	!
8DL 8DD/	48dd\LLL
.	48ff#\
.	48ddd\
.	48ff#\
.	48aa\
.	48ddd\JJJ
8d 8F#\	48ff#\LLL
.	48aa\
.	48ddd\
.	48ee#X\
.	48gg#X\
.	48ddd\JJJ
8a 8d\	48ee#\LLL
.	48gg#\
.	48ddd\
.	48ff#\
.	48aa\
.	48ddd\JJJ
8dJ 8F#\	48ff#\LLL
.	48aa\
.	48ddd\
.	48dd\
.	48ff#\
.	48ddd\JJJ
=348	=348
!LO:TX:t=P:problem:mixed beam	!
8DL 8DD/	48dd\LLL
.	48ff#\
.	48ddd\
.	48ff#\
.	48aa\
.	48ddd\JJJ
8d 8F#\	48ff#\LLL
.	48aa\
.	48ddd\
.	48ee#X\
.	48gg#X\
.	48ddd\JJJ
8a 8d\	48ee#\LLL
.	48gg#\
.	48ddd\
.	48ff#\
.	48aa\
.	48ddd\JJJ
8dJ 8F#\	48ff#\LLL
.	48aa\
.	48ddd\
.	48dd\
.	48ff#\
.	48ddd\JJJ
=349	=349
!LO:TX:t=P:problem:mixed beam	!
8AAL 8AAA/	48dd\LLL
.	48ff#\
.	48ccc#X\
.	48dd#X\
.	48ff#\
.	48ccc#\JJJ
8c#X 8G\	48dd#\LLL
.	48ff#\
.	48ccc#\
.	48ee\
.	48gg\
.	48ccc#\JJJ
8a 8c#\	48ee\LLL
.	48gg\
.	48ccc#\
.	48ee#X\
.	48gg#X\
.	48ccc#\JJJ
8c#J 8G\	48ee#\LLL
.	48gg#\
.	48ccc#\
.	48ff#\
.	48aa\
.	48ccc#\JJJ
!!LO:LB:g=original
=350	=350
8AA\L	48ff#\LLL
.	48aa\
.	48ccc#X\
.	48gg\
.	48bb-X\
.	48ccc#\JJJ
8c#X 8G\	48gg\LLL
.	48bb-\
.	48ccc#\
.	48ff#\
.	48aa\
.	48ccc#\JJJ
8a 8c#\	48ff#\LLL
.	48aa\
.	48ccc#\
.	48ee#X\
.	48gg#X\
.	48ccc#\JJJ
8c#J 8G\	48ee#\LLL
.	48gg#\
.	48ccc#\
.	48een\
.	48ggn\
.	48ccc#\JJJ
=351	=351
8F# 8DD/	48dd\LLL
.	48ff#\
.	48ddd\
.	48ff#\
.	48aa\
.	48ddd\JJJ
8dL 8F#\	48ff#\LLL
.	48aa\
.	48ddd\
.	48ee#X\
.	48gg#X\
.	48ddd\JJJ
8a 8d\	48ee#\LLL
.	48gg#\
.	48ddd\
.	48ff#\
.	48aa\
.	48ddd\JJJ
8dJ 8F#\	48ff#\LLL
.	48aa\
.	48ddd\
.	48dd\
.	48ff#\
.	48ddd\JJJ
=352	=352
!LO:TX:t=P:problem:mixed beam	!
8DL 8DD/	48dd\LLL
.	48ddd\
.	48fff#\
.	48ff#\
.	48ddd\
.	48aaa\JJJ
8d 8F#\	48ff#\LLL
.	48ddd\
.	48aaa\
.	48ee#X\
.	48ddd\
.	48ggg#X\JJJ
8a 8d\	48ee#\LLL
.	48ddd\
.	48ggg#\
.	48ff#\
.	48ddd\
.	48aaa\JJJ
8dJ 8F#\	48ff#\LLL
.	48ddd\
.	48aaa\
.	48dd\
.	48ddd\
.	48fff#\JJJ
!!LO:LB:g=original
=353	=353
!LO:TX:t=P:problem:mixed beam	!
8AAL 8AAA/	48dd\LLL
.	48ddd\
.	48aaa\JJJ
.	48dd#X\LLL
.	48ddd#X\
.	48aaa\JJJ
8c#X 8G\	48dd#\LLL
.	48ddd#\
.	48aaa\JJJ
.	48ee\LLL
.	48eee\
.	48aaa\JJJ
8a 8c#\	48ee\LLL
.	48eee\
.	48aaa\JJJ
.	48ee#X\LLL
.	48eee#X\
.	48aaa\JJJ
8c#J 8G\	48ee#\LLL
.	48eee#\
.	48aaa\JJJ
.	48ff#\LLL
.	48fff#\
.	48aaa\JJJ
=354	=354
8AA\L	48ff#\LLL
.	48fff#\
.	48aaa\JJJ
.	48gg\LLL
.	48ggg\
.	48aaa\JJJ
8c#X 8G\	48gg\LLL
.	48ggg\
.	48aaa\JJJ
.	48ff#\LLL
.	48fff#\
.	48aaa#X\JJJ
8g 8c#\	48ff#\LLL
.	48fff#\
.	48aaa#\JJJ
.	48ee#X\LLL
.	48eee#X\
.	48bbb\JJJ
8c#J 8G\	48ee#\LLL
.	48eee#\
.	48bbb\JJJ
.	48een\LLL
.	48eeen\
.	48cccc#X\JJJ
=355	=355
!LO:TX:t=P:problem:mixed beam	!
8DD/L	48dd\LLL
.	48ddd\
.	48dddd\JJJ
.	48ff#\LLL
.	48aa\
.	48ddd\JJJ
8d 8F#\	48ff#\LLL
.	48aa\
.	48ddd\
.	48ee#X\
.	48gg#X\
.	48ddd\JJJ
8a 8d\	48ee#\LLL
.	48gg#\
.	48ddd\
.	48ff#\
.	48aa\
.	48ddd\JJJ
8dJ 8F#\	48ff#\LLL
.	48aa\
.	48ddd\
.	48dd\
.	48ff#\
.	48ddd\JJJ
!!LO:PB:g=original
=356	=356
!LO:TX:t=P:problem:mixed beam	!
8DL 8DD/	48dd\LLL
.	48ff#\
.	48ddd\
.	48ff#\
.	48aa\
.	48ddd\JJJ
8d 8F#\	48ff#\LLL
.	48aa\
.	48ddd\
.	48ee#X\
.	48gg#X\
.	48ddd\JJJ
8a 8d\	48ee#\LLL
.	48gg#\
.	48ddd\
.	48ff#\
.	48aa\
.	48ddd\JJJ
8dJ 8F#\	48ff#\LLL
.	48aa\
.	48ddd\
.	48dd\
.	48ff#\
.	48ddd\JJJ
=357	=357
!LO:TX:t=P:problem:mixed beam	!
8C#XL 8CC#X/	48ff#\LLL
.	48aa\
.	48fff#\
.	48aa\
.	48ccc\
.	48fff#\JJJ
8c#X 8F#\	48aa\LLL
.	48ccc\
.	48fff#\
.	48gg\
.	48bb#X\
.	48fff#\JJJ
8a 8c#\	48gg\LLL
.	48bb#\
.	48fff#\
.	48aa\
.	48ccc\
.	48fff#\JJJ
8c#J 8F#\	48aa\LLL
.	48ccc\
.	48fff#\
.	48ff#\
.	48aa\
.	48fff#\JJJ
=358	=358
!LO:TX:t=P:problem:mixed beam	!
8BB#XL 8BBB#X/	16fff#LL 16aa 16ff#\
.	16aaa 16fff# 16ddd#X 16bb#X\
8d#X 8F#\	16aaa 16fff# 16ddd# 16bb#\
.	16fff#JJ 16ddd# 16bb# 16aa\
8a 8B#X\	16fff#LL 16ddd# 16bb# 16aa\
.	16ddd# 16bb# 16aa 16ff#\
8d#J 8F#\	16ddd# 16bb# 16aa 16ff#\
.	16bb#JJ 16aa 16ff# 16dd#X\
!!LO:LB:g=original
=359	=359
!LO:TX:t=P:problem:mixed beam	!LO:TX:t=P:problem:mixed beam
16e#XLL 16c#X 16G#X 16C#X/	16ccc#XLL 16gg#X 16ee#X 16cc#X\
16CC#X\	16c#X 16C#X/
16EE#X\	16e#X 16E#X/
16GG#X\	16g#XJJ 16G#X/
16C#\	16cc#LL 16c#/
!LO:SIC:v:s=16E#\	!
16E\	16ee# 16e#/
16G#\	16gg# 16g#/
16c#\JJ	16ccc#JJ 16cc#/
=360	=360
4CC#X 4CCC#X/	16bb#XLL 16b#X\
.	16aaa 16fff# 16ddd#X 16bb#\
.	16aaa 16fff# 16ddd# 16bb#\
.	16fff#JJ 16ddd# 16bb# 16aa\
4a 4f# 4d#X 4B#X 4A\	16fff#LL 16ddd# 16bb# 16aa\
.	16ddd# 16bb# 16aa 16ff#\
.	16ddd# 16bb# 16aa 16ff#\
.	16bb#JJ 16aa 16ff# 16dd#X\
=361	=361
!	!LO:TX:t=P:problem:mixed beam
16e#XLL 16c#X 16G#X 16C#X\	16ccc#XLL 16gg#X 16ee#X 16cc#X\
16CC#X\	16c#X 16C#X/
16EE#X\	16e#X 16E#X/
16GG#X\	16g#X 16G#X/
16C#\	16cc# 16c#/
!LO:SIC:v:s=16E#\	!
16E\	16ee# 16e#/
16G#\	16gg# 16g#/
16c#\JJ	16ccc#JJ 16cc#/
=362	=362
!LO:SIC:v:s=4CC# 4CCC#/	!
4CC 4CCC/	16bb#XLL 16b#X\
.	16aaa 16fff# 16ddd 16bb#\
.	16aaa 16fff# 16ddd 16bb#\
.	16fff#JJ 16ddd 16bb# 16aa\
4a 4f# 4d#X 4B#X 4A\	16fff#LL 16ddd 16bb# 16aa\
.	16ddd 16bb# 16aa 16ff#\
.	16ddd 16bb# 16aa 16ff#\
.	16bb#JJ 16aa 16ff# 16dd#X\
!!LO:LB:g=original
=363	=363
!	!LO:TX:t=P:problem:mixed beam
16e#X 16c#X 16G#X 16C#X\	16ccc#XLL 16gg#X 16ee#X 16cc#X\
16CC#X\LL	16c#X 16C#X/
16EE#X\	16e#X 16E#X/
16GG#X\	16g#X 16G#X/
16C#\	16cc# 16c#/
!LO:SIC:v:s=16E#\	!
16E\	16ee# 16e#/
16G#\	16gg# 16g#/
16c#\JJ	16ccc#JJ 16cc#/
=364	=364
16e#X\LL	16eee#XLL 16ee#X\
16g#X\	16ggg#X 16gg#X\
16cc#X\	16cccc#X 16ccc#X\
16e#\	16eee# 16ee#\
16g#\	16ggg# 16gg#\
16c#X\	16ccc# 16cc#X\
16e#\	16eee# 16ee#\
16G#X\JJ	16gg#JJ 16g#X\
=365	=365
16c#X\LL	16ccc#XLL 16cc#X\
16E#X\	16ee#X 16e#X\
16G#X\	16gg#X 16g#X\
16C#X\	16cc# 16c#X\
16E#\	16ee# 16e#\
16GG#X\	16g# 16G#X\
16C#\	16cc# 16c#\
16EE#X\JJ	16e#JJ 16E#X\
=366	=366
16GG#X\	16g#X 16G#X/
16CC#X 16CCC#X\	16c#X<LL 16C#X</
16BBB#XLL 16BBBB#X\	16B#X< 16BB#X</
16CC# 16CCC#\	16c#<JJ 16C#</
16BBB# 16BBBB#\	16B#<LL 16BB#</
16CC#JJ 16CCC#\	16c#< 16C#</
16DDLL 16DDD\	16d< 16D</
16CC#JJ 16CCC#\	16c#<JJ 16C#</
!!LO:LB:g=original
=367	=367
!LO:SIC:v:s=8CC# 8CCC#	!LO:TX:t=P:problem:mixed beam
8CC 8CCC\	8c#X<L 8C#X</
8e#XL 8c#X 8G#X 8E#X\	8ccc#X 8gg#X 8cc#X\
8e# 8c# 8G# 8E#\	8ccc# 8gg# 8cc#\
8e#J 8c# 8G# 8E#\	8ccc#J 8gg# 8cc#\
=368	=368
!	!LO:TX:t=P:problem:mixed beam
16f# 16d 16A 16F#\	16ccc#XLL 16aa 16cc#X\
16CC#X 16CCC#X\	16c#X< 16C#X</
16BBB#XLL 16BBBB#X\	16B#X< 16BB#X</
16CC#JJ 16CCC#\	16c#< 16C#</
16BBB#LL 16BBBB#\	16B#< 16BB#</
16CC#JJ 16CCC#\	16c#< 16C#</
16DDLL 16DDD\	16d< 16D</
16CC#JJ 16CCC#\	16c#<JJ 16C#</
=369	=369
!	!LO:TX:t=P:problem:mixed beam
8CC#XL 8CCC#X\	8c#X<L 8C#X</
8f# 8d 8A 8F#\	8ccc#X 8aa 8cc#X\
8f# 8d 8A 8F#\	8ccc# 8aa 8cc#\
8f#J 8d 8A 8F#\	8ccc#J 8aa 8cc#\
=370	=370
!	!LO:TX:t=P:problem:mixed beam
8gL 8e 8A#X 8G\	8ccc#XL 8aa#X 8ee 8cc#X\
8CC#XJ 8CCC#X\	8c#X<J 8C#X</
!	!LO:TX:t=P:problem:mixed beam
8g#XL 8e#X 8B 8G#X\	8ccc#L 8bb 8ee# 8cc#\
8CC#J 8CCC#\	8c#<J 8C#</
*clefG2	*
=371	=371
8gg#XL 8ee#X 8b 8g#X\	8ccc#XL 8bb 8ee#X 8cc#X\
*clefF4	*
8C#XJ 8CC#X\	8cc#J 8c#X\
*clefG2	*
8gg#L 8ee# 8b 8g#\	8ccc#L 8bb 8ee# 8cc#\
*clefF4	*
8C#J 8CC#\	8cc#J 8c#\
!!LO:LB:g=original
=372	=372
*clefG2	*
!	!LO:N:vis=16
4ccc#X 4ee#X 4b 4g#X 4c#X\	8gggg#XLL 8cccc#X 8ggg#X\
*	*8va
!	!LO:TX:t=P:problem:cross-measure beam
!	!LO:TX:t=P:problem:zapis z przenośnikami oktawowymi po konsultacji z J.I.
.	16gggg# 16ggg#\
*	*X8va
.	16gggn</
*	*8va
4ryy	16ggggn 16gggn\
*	*X8va
.	16fff#</
*	*8va
.	16ffff# 16fff#\
*	*X8va
.	16fffn</
=373	=373
*	*8va
2ryy	16ffffny 16fffn\
*	*X8va
.	16eee</
*	*8va
.	16eeee 16eee\
*	*X8va
.	16ddd#X</
*	*8va
.	16dddd#y 16ddd#X\
*	*X8va
.	16dddn</
*	*8va
.	16ddddny 16dddn\
*	*X8va
.	16ccc</
=374	=374
*	*8va
2ryy	16cccc#X 16ccc#X\
*	*X8va
.	16bb#X</
*	*8va
.	16bbb#X 16bb#\
*	*X8va
.	16bbn</
*	*8va
.	16bbbn 16bb\
*	*X8va
.	16aa#X</
*	*8va
.	16aaa#X 16aa#\
*	*X8va
.	16aan</
=375	=375
2ryy	16aaan 16aan\
.	16gg#X</
.	16ggg#X 16gg#\
.	16ggn</
.	16gggn 16ggn\
.	16ff#</
.	16fff# 16ff#\
.	16ffn</
=376	=376
2ryy	16fffn 16ffn\
.	16ee</
.	16eee 16ee\
.	16dd#X</
.	16ddd#X 16dd#X\
.	16ddn</
.	16dddn 16ddn\
.	16cc#X</JJ
!!LO:LB:g=original
=377	=377
2ryy	16ccc#XLL 16cc#X\
.	16cc#X</
.	16bb#X 16b#X\
.	16bn</
.	16bbn 16bn\
.	16a#X</
.	16aa#X 16a#X\
.	16an</
=378	=378
2ryy	16aan 16an\
.	16g#X</
.	16gg#X 16g#X\
.	16gn</
.	16ggn 16gn\
.	16f#</
.	16ff# 16f#\
.	16fn</
=379	=379
2ryy	16ffn 16fn\
.	16e</
.	16ee 16e\
.	16d#X</
.	16dd#X 16d#X\
.	16dn</
.	16ddn 16dn\
.	16c</JJ
=380||	=380||
!LO:CL:ed	!
*clefF4	*
*k[f#c#g#]	*k[f#c#g#]
16FF#LL 16FFF#\	16r
16A 16F# 16C#\	16cc#LL 16a 16c#\
16BB#X\	16b#X 16B#X\
16C#\	16cc# 16c#\
16BB#\	16b# 16B#\
16C#\	16cc# 16c#\
16D\	16dd 16d\
16C#\JJ	16cc#JJ 16c#\
=381	=381
8AL 8F# 8C#\	8cc#L 8a 8c#\
8a 8f# 8c#\	8ccc# 8aa 8cc#\
8a 8f# 8c#\	8ccc# 8aa 8cc#\
8aJ 8f# 8c#\	8ccc#J 8aa 8cc#\
!!LO:PB:g=original
=382	=382
*clefF4	*
!LO:TX:t=P:problem:mixed beam	!
16FFF#/LL	16r
16A 16D\	16ddLL 16a 16d\
16E\	16ee 16e\
16D\JJ	16dd 16d\
16C#\LL	16cc# 16c#\
16D\	16dd 16d\
16E\	16ee 16e\
16F#\JJ	16ff#JJ 16f#\
=383	=383
8AL 8F# 8C#\	8cc#L 8a 8c#\
8a 8f# 8c#\	8ccc# 8aa 8cc#\
8a 8f# 8c#\	8ccc# 8aa 8cc#\
8aJ 8f# 8c#\	8ccc#J 8aa 8cc#\
=384	=384
!LO:TX:t=P:problem:mixed beam	!
8BBL 8BBB/	8eeeL 8gg# 8ee\
8G# 8D\	8ddd 8dd\
8d 8F#\	8.ccc# 8.cc#\
8G#J 8D\	.
.	16bbJk 16b\
=385	=385
8C# 8CC#/	8bbL 8ff# 8b\
8AL 8C#\	8aa 8a\
8c# 8F#\	8.gg# 8.g#\
8AJ 8C#\	.
.	16ff#Jk 16f#\
=386	=386
8C# 8CC#/	8ee#XL 8e#X\
8G#L 8C#\	8gg# 8g#\
8e#X 8G#\	8ddd 8dd\
*clefG2	*
8cc#J 8e#X\	8ccc#J 8cc#\
!!LO:LB:g=original
=387	=387
8f#L 8G#/	8bb#L 8b#\
8b#XJ 8f#/	8ggg# 8gg#\
4cc# 4e#X 4c#/	[8ccc#\
.	8cccc#J 8ccc#\]
=388	=388
!LO:CL:ed	!
*clefF4	*
16FF# 16FFF#/	16r
16ALL 16F# 16C#\	16cc#LL 16a 16c#\
16BB#X\	16b#X 16B#X\
16C#\	16cc# 16c#\
16BB#\	16b# 16B#\
16C#\	16cc# 16c#\
16D\	16dd 16d\
16C#\JJ	16cc#JJ 16c#\
=389	=389
8AL 8F# 8C#\	8cc#L 8a 8c#\
8a 8f# 8c#\	8ccc# 8aa 8cc#\
8a 8f# 8c#\	8ccc# 8aa 8cc#\
8aJ 8f# 8c#\	8ccc#J 8aa 8cc#\
=390	=390
!LO:TX:t=P:problem:mixed beam	!
16FFF#/LL	16r
16A 16D\	16ddLL 16a 16d\
16E\	16ee 16e\
16D\	16dd 16d\
16C#\	16cc# 16c#\
16D\	16dd 16d\
16A\	16aa 16a\
16D\JJ	16ddJJ 16d\
=391	=391
8AL 8F# 8C#\	8cc#L 8a 8c#\
8a 8f# 8c#\	8ccc# 8aa 8cc#\
8a 8f# 8c#\	8ccc# 8aa 8cc#\
8aJ 8f# 8c#\	8ccc#J 8aa 8cc#\
!!LO:LB:g=original
=392	=392
*clefF4	*
!LO:TX:t=P:problem:mixed beam	!
8BBL 8BBB/	8eeeL 8gg# 8ee\
8G# 8D\	8ddd 8dd\
8d 8F#\	8.ccc# 8.cc#\
8G#J 8D\	.
.	16bbJk 16b\
=393	=393
8C# 8CC#/	8bbL 8ff# 8b\
8AL 8C#\	8aa 8a\
!	!LO:N:vis=8
8c# 8F#\	8.gg# 8.g#\
8AJ 8C#\	.
.	16ff#Jk 16f#\
=394	=394
!LO:TX:t=P:problem:mixed beam	!
8CC#/L	8ee#XL 8e#X\
8B 8C#\	8gg# 8g#\
8e#X 8B\	8ddd 8dd\
8BJ 8C#\	8ccc#J 8cc#\
=395	=395
!LO:TX:t=P:problem:mixed beam	!
8FF#/L	8ff#L 8f#\
8A 8C#\	8aa 8a\
8f# 8A\	8bb#X 8b#X\
8AJ 8C#\	8ccc#J 8cc#\
=396	=396
!LO:TX:t=P:problem:mixed beam	!
8BBL 8BBB/	8eeeL 8gg# 8ee\
8d 8D\	8ddd 8dd\
8f# 8G# 8F#\	8.fff# 8.ff#\
8dJ 8D\	.
.	16bbJk 16b\
=397	=397
!LO:TX:t=P:problem:mixed beam	!
8CC#/L	8bbL 8ff# 8b\
8A 8C#\	8aa 8a\
8c# 8F#\	8.ccc# 8.cc#\
8AJ 8C#\	.
.	16ff#Jk 16f#\
!!LO:LB:g=original
=398	=398
8CC#/	8aaL 8a\
8F#L 8AA\	8ff# 8f#\
8B#X 8D\	8dd 8d\
8F#J 8AA\	8b#XJ 8B#X\
=399	=399
!LO:TX:t=P:problem:mixed beam	!LO:SIC:v:s=8b#L 8B#\
8CC#L 8CCC#/	8bL 8B\
8E#X 8BB\	8cc# 8c#\
8c# 8C#\	8aa 8cc# 8a\
8E#J 8BB\	8gg#J 8g#\
=400	=400
4FF# 4FFF#/	8ff#L 8cc# 8a 8f#\
.	16fff#L 16ccc# 16aa\
.	16fff#JJ 16ccc# 16aa\
*clefG2	*
8ff# 8cc# 8a 8f#\	16fff#LL 16ccc# 16aa\
.	16ff#\
8r	16ccc# 16aa 16ff#\
.	16ccc#JJ 16aa 16ff#\
=401	=401
8cc# 8a 8f# 8c#/	16ccc#LL 16aa 16ff#\
.	16cc#\
8r	16aa 16ff# 16cc#\
.	16aa 16ff# 16cc#\
8a 8f# 8c# 8A/	16aa 16ff# 16cc#\
.	16a\
8r	16ff# 16cc# 16a\
.	16ff#JJ 16cc# 16a\
*clefF4	*
=402	=402
8f# 8c# 8A 8F#\	16ff#LL 16cc# 16a\
.	16f#\
8r	16cc# 16a 16f#\
.	16cc# 16a 16f#\
8c# 8A 8F# 8C#\	16cc# 16a 16f#\
.	16c#\
8r	16a 16f# 16c#\
.	16aJJ 16f# 16c#\
=403	=403
8A 8F# 8C# 8AA\	16aLL 16f# 16c#/
.	16A/
8r	16f# 16c# 16A/
.	16f#JJ 16c# 16A/
8F# 8C# 8AA 8FF#\	16f#LL 16c# 16A/
.	16F#/
8r	16c# 16A 16F#/
.	16c#JJ 16A 16F#/
!!LO:LB:g=original
=404	=404
8BB 8BBB/	16r
.	16G#X/LL
8r	16a 16f# 16d/
.	16g#/JJ
8f# 8d 8G# 8F#\	16r
.	16ddLL 16g# 16f# 16d\
8r	16dd 16g# 16f# 16d\
.	16ddJJ 16g# 16f# 16d\
=405	=405
8BB 8BBB/	16r
.	16G#/LL
8r	16a 16f# 16d/
.	16g#/JJ
8f# 8d 8G# 8F#\	16r
.	16ddLL 16g# 16f# 16d\
8r	16dd 16g# 16f# 16d\
.	16ddJJ 16g# 16f# 16d\
=406	=406
8C# 8CC#/	16r
.	16G#/LL
8r	16a 16f# 16c#/
.	16g#/JJ
8f# 8c# 8G# 8F#\	16r
.	16cc#LL 16g# 16f# 16c#/
8r	16cc# 16g# 16f# 16c#/
.	16cc#JJ 16g# 16f# 16c#/
=407	=407
8CC# 8CCC#/	16r
.	16G#/LL
8r	16a 16e#X 16c#/
.	16g#/JJ
8e#X 8c# 8B 8G# 8E#X\	16r
.	16cc#LL 16g# 16e# 16c#/
8r	16cc# 16g# 16e# 16c#/
.	16cc#JJ 16g# 16e# 16c#/
=408	=408
!	!LO:TX:t=P:problem:mixed beam
8FF# 8FFF#/	8f#L 8c# 8A 8F#/
8r	16fff#L 16ccc# 16aa\
.	16fff#JJ 16ccc# 16aa\
!!LO:LB:g=original
*clefG2	*
8ff# 8cc# 8a 8f#\	16fff#LL 16ccc# 16aa\
.	16ff#\
8r	16ccc# 16aa 16ff#\
.	16ccc#JJ 16aa 16ff#\
=409	=409
8cc# 8a 8f# 8c#\	16ccc#LL 16aa 16ff#\
.	16cc#\
8r	16aa 16ff# 16cc#\
.	16aa 16ff# 16cc#\
8a 8f# 8c# 8A/	16aa 16ff# 16cc#\
.	16a\
8r	16ff# 16cc# 16a\
.	16ff#JJ 16cc# 16a\
*clefF4	*
=410	=410
8f# 8c# 8A 8F#\	16ff#LL 16cc# 16a\
.	16f#\
8r	16cc# 16a 16f#\
.	16cc# 16a 16f#\
8c# 8A 8F# 8C#\	16cc# 16a 16f#\
.	16c#\
8r	16a 16f# 16c#\
.	16aJJ 16f# 16c#\
=411	=411
8E 8EE\	16r
.	16A/LL
8r	16cc# 16a 16fn/
.	16b/JJ
8a 8fn 8d 8A\	16r
.	16ffnLL 16b 16a 16f\
8r	16ff 16b 16a 16f\
.	16ffJJ 16b 16a 16f\
=412	=412
8E 8EE/	16r
.	16A/LL
8r	16cc# 16a 16fn/
.	16b/JJ
8a 8fn 8d 8A\	16r
.	16ffnLL 16b 16a 16f\
8r	16ff 16b 16a 16f\
.	16ffJJ 16b 16a 16f\
=413	=413
8E 8EE\	16r
.	16A/LL
8r	16cc# 16a 16e/
.	16b/JJ
8a 8e 8d 8A\	16r
.	16eeLL 16b 16a 16e\
8r	16ee 16b 16a 16e\
.	16eeJJ 16b 16a 16e\
!!LO:PB:g=original
=414	=414
!LO:TX:t=P:problem:skreślona nuta	!
8EE 8EEE/	16r
.	16G#X/LL
8r	16cc# 16g#X 16e/
.	16b/JJ
8g# 8e 8d 8G#\	16r
.	16eeLL 16b 16g# 16e/
8r	16ee 16b 16g# 16e/
.	16eeJJ 16b 16g# 16e/
=415	=415
8AA 8AAA/	8a 8e 8c# 8A/
8r	8r
8C#\L	16a\LL
.	16aa 16ee\
*clefG2	*
8cc#J 8e 8c#\	16aa 16ee\
.	16a\JJ
=416	=416
8D/L	16b\LL
.	16bb 16ffn\
8ddJ 8fn 8d/	16bb 16ff\
.	16b\
8D#X/L	16ccn\
.	16cccn 16ff#X\
8dd#XJ 8f#X 8d#X/	16ccc 16ff#\
.	16cc\JJ
*clefF4	*
=417	=417
!LO:TX:t=P:problem:mixed beam	!
8EE/L	16b\LL
.	16bb 16ffn\
*clefG2	*
8ddnJ 8fn 8dn\	16bb 16ff\
.	16b\
!LO:TX:t=P:problem:mixed beam	!
8E/L	16a\
.	16aa 16ff\
8ddJ 8f 8d\	16aa 16ff\
.	16a\JJ
=418	=418
!LO:TX:t=P:problem:mixed beam	!
8E/L	16g#\LL
.	16gg# 16ee\
8ddJ 8e 8d\	16gg# 16ee\
.	16g#\
!LO:TX:t=P:problem:mixed beam	!
8E/L	16ffn\
.	16fffn 16gg#\
8ddJ 8g# 8d\	16fff 16gg#\
.	16ff\JJ
*clefF4	*
!!LO:LB:g=original
=419	=419
8AA\L	16ee\LL
.	16eee 16aa\
*clefG2	*
8cc#J 8a 8c#\	16eee 16aa\
.	16ee\
8C#/L	16a\
.	16aa 16ee\
8cc#J 8e 8c#/	16aa 16ee\
.	16a\JJ
=420	=420
!LO:TX:t=P:problem:mixed beam	!
8D/L	16a\LL
.	16aa 16ffn\
8ddJ 8fn 8d\	16aa 16ff\
.	16a\
8D#X/L	16a\
.	16aa 16ff#X\
8dd#XJ 8f#X 8d#X/	16aa 16ff#\
.	16a\JJ
*clefF4	*
=421	=421
!LO:TX:t=P:problem:mixed beam	!
8EE/L	16a\LL
.	16ccc# 16ee\
8aJ 8c#\	16ccc# 16ee\
.	16a\
8E\L	16a\
.	16cccn 16dd#X\
8aJ 8cn\	16ccc 16dd#\
.	16a\JJ
=422	=422
8E\L	16a\LL
.	16bb 16ddn\
8aJ 8B\	16bb 16dd\
.	16a\
8E\L	16ee\
.	16eee 16gg#\
8ddJ 8g# 8d\	16eee 16gg#\
.	16ee\JJ
=423	=423
8AA\L	16a\LL
.	16aa 16ee\
8cc#J 8a 8c#\	16aa 16ee\
.	16a\
*clefG2	*
8C#/L	16a\
.	16aa 16ee\
8cc#J 8e 8c#/	16aa 16ee\
.	16a\JJ
=424	=424
8D/L	16b\LL
.	16bb 16ffn\
8ddJ 8fn 8d/	16bb 16ff\
.	16b\
8D#X/L	16ccn\
.	16cccn 16ff#X\
8dd#XJ 8f#X 8d#X/	16ccc 16ff#\
.	16cc\JJ
*clefF4	*
!!LO:LB:g=original
=425	=425
!LO:TX:t=P:problem:mixed beam	!
8EE/L	16b\LL
.	16bb 16ffn\
*clefG2	*
8ddnJ 8fn 8dn\	16bb 16ff\
.	16b\
8E/L	16a\
.	16aa 16ff\
8ddJ 8f 8d/	16aa 16ff\
.	16a\JJ
=426	=426
!LO:TX:t=P:problem:mixed beam	!
8E/L	16g#\LL
.	16gg# 16ee\
8ddJ 8e 8d\	16gg# 16ee\
.	16g#\
!LO:TX:t=P:problem:mixed beam	!
8E/L	16ffn\
.	16fffn 16gg#\
8ddJ 8g# 8d\	16fff 16gg#\
.	16ff\JJ
*clefF4	*
=427	=427
8AA\L	16ee\LL
.	16eee 16aa\
8cc#J 8a 8c#\	16eee 16aa\
.	16ee\
*clefG2	*
8C#/L	16a\
.	16aa 16ee\
8cc#J 8e 8c#/	16aa 16ee\
.	16a\JJ
=428	=428
8D/L	16a\LL
.	16aa 16ffn\
8ddJ 8fn 8d/	16aa 16ff\
.	16a\
8D#X/L	16a\
.	16aa 16ff#X\
8dd#XJ 8f#X 8d#X/	16aa 16ff#\
.	16a\JJ
*clefF4	*
=429	=429
8EE\L	16a\LL
.	16ccc# 16ee\
8aJ 8c#\	16ccc# 16ee\
.	16a\
8E\L	16a\
.	16cccn 16dd#X\
8aJ 8cn\	16ccc 16dd#\
.	[16a\JJ
=430	=430
8E\L	16a\LL]
.	16bb 16ddn\
8aJ 8B\	16bb 16dd\
.	16a\
!LO:TX:t=P:problem:mixed beam	!
8EE/L	16ee\
.	16eee 16gg#\
8ddJ 8g# 8d\	16eee 16gg#\
.	16ee\JJ
!!LO:LB:g=original
=431	=431
8AA 8AAA/	8aa 8cc# 8a\
8r	8r
8AL 8E 8AA\	16aaLL 16cc# 16a\
.	16e\JJ
16c#L 16A\	8ryy
16e\JJ	.
=432	=432
8AL 8E 8AA\	16aaLL 16cc# 16a\
.	16e\JJ
16c#L 16A\	8ryy
16e\JJ	.
8AL 8E 8AA\	16aaLL 16cc# 16a\
.	16e\JJ
16c#L 16A\	8ryy
16e\JJ	.
=433	=433
8E 8EE\	8g# 8d 8G#/
*clefG2	*
8ffnL 8dd 8fn\	16r
.	8fffnL 8gg# 8ffn\
8dd 8b 8d\	.
.	8ddd 8ff 8dd\
8bJ 8g# 8B\	.
.	16bbJk 16dd 16b\
*clefF4	*
=434	=434
8g#L 8fn 8G#\	16r
.	8gg#L 8b 8g#\
8fn 8G# 8Fn\	.
.	8ffn 8g# 8fn\
8e 8G# 8E\	.
.	8ee 8g# 8e\
8dJ 8G# 8D\	.
.	16ddJk 16g# 16d\
=435	=435
4AA 4AAA/	4cc# 4a 4c#\
8AL 8E 8AA\	16aaLL 16cc# 16a\
.	16e\JJ
16c#L 16A\	8ryy
16e\JJ	.
=436	=436
8AL 8E 8AA\	16aaLL 16cc# 16a\
.	16e\JJ
16c#L 16A\	8ryy
16e\JJ	.
8AL 8E 8AA\	16aaLL 16cc# 16a\
.	16e\JJ
16c#L 16A\	8ryy
16e\JJ	.
!!LO:LB:g=original
=437	=437
8F# 8FF#\	8aa#X 8ee 8a#X\
*clefG2	*
8ggnL 8ee 8gn\	16r
.	8gggnL 8aa# 8ggn\
8ee 8cc# 8e\	.
.	8eee 8gg 8ee\
8cc#J 8a#X 8c#\	.
.	16ccc#Jk 16ee 16cc#\
*clefF4	*
=438	=438
8a#XL 8gn 8A#X\	16ryy
.	8aa#XL 8cc# 8a#X\
8g 8A# 8G#\	.
.	8ggn 8a# 8gn\
8f# 8A# 8F#\	.
.	8ff# 8a# 8f#\
8eJ 8A# 8E\	.
.	16eeJk 16a# 16e\
=439	=439
4BB 4BBB/	4dd 4b 4d\
8BL 8F# 8BB\	16bbLL 16dd 16b\
.	16f#\JJ
16dL 16B\	8ryy
16f#\JJ	.
=440	=440
8BL 8F# 8BB\	16bbLL 16dd 16b\
.	16f#\JJ
16dL 16B\	8ryy
16f#\JJ	.
8BL 8F# 8BB\	16bbLL 16dd 16b\
.	16f#\JJ
16dL 16B\	8ryy
16f#\JJ	.
=441	=441
8G# 8GG#\	8b#X 8f# 8B#X\
*clefG2	*
8aaL 8ff# 8a\	16r
.	8aaaL 8bb#X 8aa\
8ff# 8dd#X 8f#\	.
.	8fff# 8aa 8ff#\
8dd#J 8b#X 8d#X\	.
.	16ddd#XJk 16ff# 16dd#X\
*clefF4	*
!!LO:LB:g=original
=442	=442
8b#XL 8a 8B#X\	16ryy
.	8bb#XL 8dd#X 8b#X\
8a 8B# 8A\	.
.	8aa 8b# 8a\
8g# 8B# 8G#\	.
.	8gg# 8b# 8g#\
8f#J 8B# 8F#\	.
.	16ff#Jk 16b# 16f#\
=443	=443
8ryy	16c#<LL 16G#< 16C#</
.	16ee#X 16cc# 16e#X\
*clefG2	*
8ryy	16cc#< 16g#< 16e#X</
.	16ccc#JJ 16ee# 16cc#\
*clefF4	*
4ryy	16ccc#LL 16ee# 16cc#\
.	16g# 16e#\
.	16e#X< 16c#</
.	16g#</JJ
=444	=444
8EnL 8EEn\	16r
.	16eeLL 16gn\
8g#J 8e 8B\	16ggn 16b\
.	16bbJJ 16ee\
8F#L 8FF#\	16aa#XLL 16ee\
.	16ccc#\
8a#XJ 8e 8A#X\	16eee\
.	16aa#\JJ
=445	=445
8ryy	16B<LL 16F#< 16BB<\
.	16dd 16b 16d/
*clefG2	*
8ryy	16b< 16f#< 16d<\
.	16bbJJ 16dd 16b/
*clefF4	*
4ryy	16bbLL 16dd 16b\
.	16f# 16d\
.	16d< 16B</
.	16f#</JJ
!!LO:PB:g=original
=446	=446
!LO:TX:t=P:problem:mixed beam	!
8DL 8DD/	16r
.	16ddLL 16fn\
8fnJ 8d 8A\	16ffn 16a\
.	16aa 16dd\
!LO:TX:t=P:problem:mixed beam	!
8EL 8EE/	16gg# 16dd\
.	16bb\
8g#J 8d 8G#\	16ddd\
.	16gg#\JJ
=447	=447
16A 16E 16AA\	16r
16r	16cc# 16a 16c#\
16a 16e 16c#\	16r
16r	16aa 16cc# 16a\
4ryy	16aaLL 16cc# 16a\
.	16eJJ 16c#\
.	16c#<LL 16A<\
.	16e<\JJ
=448	=448
16D 16DD\	16r
16r	16a 16fn 16A\
16d 16A 16Fn\	16r
16r	16ffn 16a 16f\
4ryy	16ffLL 16a 16f\
.	16dJJ 16A\
.	16A<LL 16Fny<\
.	16d<\JJ
=449	=449
*^	*
8EE\	8ryy	16r
.	.	16g# 16e 16G#/
4.d 4.G#/	8E\L	16r
.	.	16ee 16g# 16e\
.	8D#X\	16eeLL 16g# 16e\
.	.	16G#\JJ
.	8E\J	16ryy
.	.	16G#\
*v	*v	*
=450	=450
8AAL 8AAA\	16rG<
.	16c#< 16A< 16C#</
8A 8AA\	16r
.	16a 16A\
8B 8BB\	16r
.	16b 16B\
8B#XJ 8BB#X\	16r
.	16b#X 16B#X\
!!LO:LB:g=original
=451	=451
16c# 16G# 16C#\	16r
16r	16b\
16cc# 16g# 16e\	16r
16r	16ccc# 16ee 16cc#\
4ryy	16ccc#LL 16ee 16cc#\
.	16g#JJ 16e\
.	16e<LL 16c#<\
.	16g#<\JJ
=452	=452
8EL 8EE\	16r
.	16eeLL 16gn\
8gnJ 8e 8B\	16ggn 16b\
.	16bb 16ee\
8F#L 8FF#\	16aa#X 16ee\
.	16ccc#\
8a#XJ 8e 8A#X\	16eee\
.	16aa#\JJ
=453	=453
16B 16F# 16BB\	16r
16r	16dd 16b 16d\
16b 16f# 16d\	16r
16r	16bb 16dd 16b\
4ryy	16bbLL 16dd 16b\
.	16f#JJ 16d\
.	16d<LL 16B<\
.	16f#<\JJ
=454	=454
8DL 8DD\	16r
.	16ddLL 16fn\
8fnJ 8d 8A\	16ffn 16a\
.	16aa 16dd\
!LO:TX:t=P:problem:mixed beam	!
8EL 8EE/	16gg# 16dd\
.	16bb\
8g#J 8d 8G#\	16ddd\
.	16gg#\JJ
=455	=455
16A 16E 16AA\	16r
16r	16cc# 16a 16c#\
16a 16e 16c#\	16r
16r	16aa 16cc# 16a\
4ryy	16aaLL 16cc# 16a\
.	16eJJ 16c#\
.	16c#<LL 16A<\
.	16e<\JJ
!!LO:LB:g=original
=456	=456
16D#X 16DD#X/	16r
16r	16a 16cn 16A/
16f# 16cn 16A\	16r
16r	16ff# 16a 16f#\
4ryy	16ff#LL 16a 16f#\
.	16dJJ 16A\
.	16A<LL 16F#<\
.	16c<\JJ
=457	=457
*^	*
8CC#/	8ryy	16r
.	.	16f# 16c# 16F#/
4.A 4.F#/	8C#\L	16r
.	.	16cc# 16f# 16c#/
.	8BB#X\	16cc#LL 16f# 16c#/
.	.	16F#/JJ
.	8C#\J	16r
.	.	16F#/
=458	=458	=458
!LO:TX:t=P:problem:mixed beam	!	!
8ryy	8CCC#/L	16r
.	.	16e#X 16c# 16E#X/
4.B 4.E#X/	8C#\	16r
.	.	16cc# 16e# 16c#/
.	8BB#X\	16cc#LL 16e# 16c#/
.	.	16E#/JJ
.	8C#\J	16r
.	.	16E#/
*v	*v	*
=459	=459
!LO:TX:t=P:problem:mixed beam	!
8FF#L 8FFF#/	8f# 8c# 8A 8F#/
8a 8f# 8c#\	16ccc#LL 16cc#\
.	16ccc#JJ 16cc#\
8G#\	16ccc#LL 16cc#\
.	16bb#X 16b#X\
8aJ 8f# 8c#\	16bb# 16b#\
.	16bb#JJ 16b#\
=460	=460
8A\L	16bb#XLL 16b#X\
.	16ccc# 16cc#\
8aJ 8f# 8c#\	16ccc# 16cc#\
.	16ccc# 16cc#\
8F#\L	16ccc# 16cc#\
.	16aa 16a\
8f#J 8c# 8A\	16aa 16a\
.	16aaJJ 16a\
!!LO:LB:g=original
=461	=461
8FF#\L	16r
.	16ccc#LL 16cc#\
8aJ 8f# 8c#\	16ccc# 16cc#\
.	16ccc# 16cc#\
8G#\L	16ccc# 16cc#\
.	16bb#X 16b#X\
8aJ 8f# 8c#\	16bb# 16b#\
.	16bb#JJ 16b#\
=462	=462
8A\L	16bb#XLL 16b#X\
.	16ccc# 16cc#\
8aJ 8f# 8c#\	16ccc# 16cc#\
.	16ccc# 16cc#\
8F#\L	16ccc# 16cc#\
.	16aa 16a\
8f#J 8c# 8A\	16aa 16a\
.	16aaJJ 16a\
=463	=463
!	!LO:TX:t=P:problem:mixed beam
8BBL 8BBB\	8d<L 8D</
8f#J 8d 8G# 8F#\	8gg#J 8dd 8g#\
4ryy	16aaLL 16dd 16a\
.	16gg#JJ 16g#\
.	16f#< 16d< 16G#< 16F#<\
.	16gg# 16g#\
=464	=464
!	!LO:TX:t=P:problem:mixed beam
8BBL 8BBB\	8d<L 8D</
8f#J 8d 8G# 8F#\	8gg#J 8dd 8g#\
4ryy	16aaLL 16dd 16a\
.	16gg#JJ 16g#\
.	16f#< 16d< 16G#< 16F#<\
.	16gg# 16g#\
=465	=465
!LO:N:vis=16	!LO:TX:t=P:problem:mixed beam
8C# 8CC#\	8c#<L 8C#</
!LO:N:vis=16	!
8f# 8c# 8G# 8F#\	8gg#J 8cc# 8g#\
4ryy	16aaLL 16cc# 16a\
.	16gg#JJ 16g#\
.	16f#< 16c#< 16G#< 16F#<\
.	16gg# 16g#\
!!LO:LB:g=original
=466	=466
!	!LO:TX:t=P:problem:mixed beam
8BBL 8BBB\	8c#<L 8C#</
8e#XJ 8c# 8B 8G# 8E#X\	8gg#J 8cc# 8g#\
4ryy	16aaLL 16cc# 16a\
.	16gg#JJ 16g#\
.	16e#y< 16c#< 16B< 16G#< 16E#y<\
.	16gg# 16g#\
=467	=467
!LO:TX:t=P:problem:mixed beam	!
8FF#L 8FFF#/	8ff#L 8cc# 8a 8f#\
8cc#J 8f# 8c#\	16ccc#L 16cc#\
.	16ccc#JJ 16cc#\
8G#\L	16ccc#LL 16cc#\
.	16bb#X 16b#X\
8aJ 8f# 8c#\	16bb# 16b#\
.	16bb#JJ 16b#\
=468	=468
8A\L	16bb#XLL 16b#X\
.	16ccc# 16cc#\
8aJ 8f# 8c#\	16ccc# 16cc#\
.	16ccc# 16cc#\
8F#\L	16ccc# 16cc#\
.	16aa 16a\
8f#J 8c# 8A\	16aa 16a\
.	16aaJJ 16a\
=469	=469
8FF#\L	16r
.	16ccc#LL 16cc#\
8aJ 8f# 8c#\	16ccc# 16cc#\
.	16ccc# 16cc#\
8G#\L	16ccc# 16cc#\
.	16bb#X 16b#X\
8aJ 8f# 8c#\	16bb# 16b#\
.	16bb#JJ 16b#\
=470	=470
8A\L	16bb#XLL 16b#X\
.	16ccc# 16cc#\
8aJ 8f# 8c#\	16ccc# 16cc#\
.	16ccc# 16cc#\
8F#\L	16ccc# 16cc#\
.	16aa 16a\
8f#J 8c# 8A\	16aa 16a\
.	16aaJJ 16a\
!!LO:LB:g=original
=471	=471
!	!LO:TX:t=P:problem:mixed beam
8BBL 8BBB\	8d<L 8D</
8f#J 8d 8G# 8F#\	8gg#J 8dd 8g#\
4ryy	16aaLL 16dd 16a\
.	16gg#JJ 16g#\
.	16f#< 16d< 16G#< 16F#<\
.	16gg# 16g#\
=472	=472
!	!LO:TX:t=P:problem:mixed beam
8BBL 8BBB\	8d<L 8D</
8f#J 8d 8G# 8F#\	8gg#J 8dd 8g#\
4ryy	16aaLL 16dd 16a\
.	16gg#JJ 16g#\
.	16f#< 16d< 16G#< 16F#<\
.	16gg# 16g#\
=473	=473
!	!LO:TX:t=P:problem:mixed beam
8C#L 8CC#\	8c#<L 8C#</
8f# 8c# 8G# 8F#J\	8gg#J 8cc# 8g#\
4ryy	16aaLL 16cc# 16a\
.	16gg#JJ 16g#\
.	16f#< 16c#< 16G#< 16F#<\
.	16gg# 16g#\
=474	=474
!	!LO:TX:t=P:problem:mixed beam
8CC#L 8CCC#\	8c#<L 8C#</
8e#XJ 8c# 8B 8G# 8E#X\	8gg#J 8cc# 8g#\
4ryy	16aaLL 16cc# 16a\
.	16gg#JJ 16g#\
.	16e#y< 16c#< 16B< 16G#< 16E#y<\
.	16gg# 16g#\
=475	=475
8FF# 8FFF#/	8ff# 8a 8f#\
8r	8r
24AA\LL	24f#\LL
24A\	24cc#\
24c#\JJ	24ff#\JJ
24a\LL	24ff#\LL
24c#\	24cc#\
24A\JJ	24f#\JJ
!!LO:PB:g=original
=476	=476
24BB\LL	24g#\LL
24B\	24dd\
24d\JJ	24gg#\JJ
24b\LL	24gg#\LL
24d\	24dd\
24B\JJ	24g#\JJ
24BB#X\LL	24a\LL
24B#X\	24dd#X\
24d#X\JJ	24aa\JJ
24b#X\LL	24aa\LL
24d#\	24dd#\
24B#\JJ	24a\JJ
=477	=477
!LO:TX:t=P:problem:mixed beam	!
24CC#/LL	24g#\LL
24B\	24ddn\
24d\JJ	24gg#\JJ
24b\LL	24gg#\LL
24d\	24dd\
24B\JJ	24g#\JJ
24C#\LL	24f#\LL
24A\	24dd\
24d\JJ	24ff#\JJ
24a\LL	24ff#\LL
24d\	24dd\
24A\JJ	24f#\JJ
=478	=478
24C#\LL	24e#X\LL
24G#\	24cc#\
24c#\JJ	24ee#X\JJ
24g#\LL	24ee#\LL
24c#\	24cc#\
24G#\JJ	24e#\JJ
24C#\LL	24dd\LL
*clefG2	*
24d\	24ee#\
24e#X\JJ	24ddd\JJ
24dd\LL	24ddd\LL
24e#\	24ee#\
24d\JJ	24dd\JJ
*clefF4	*
=479	=479
24FF#\LL	24cc#\LL
24c#\	24ff#\
24f#\JJ	24ccc#\JJ
24cc#\LL	24ccc#\LL
24f#\	24ff#\
24c#\JJ	24cc#\JJ
24AA\LL	24f#\LL
24F#\	24cc#\
24c#\JJ	24ff#\
24f#\LL	24ff#\
24c#\	24cc#\
24F#\JJ	24f#\JJ
=480	=480
24BB\LL	24f#\LL
24F#\	24dd\
24d\JJ	24ff#\JJ
24f#\LL	24ff#\LL
24d\	24dd\
24D\JJ	24f#\JJ
24BB#X\LL	24f#\LL
24F#\	24dd#X\
24d#X\JJ	24ff#\JJ
24f#\LL	24ff#\LL
24d#\	24dd#\
24F#\JJ	24f#\JJ
!!LO:LB:g=original
=481	=481
!LO:TX:t=P:problem:mixed beam	!
24CC#/LL	32f#\LLL
.	32cc#\
24F#\	.
.	32ff#\
24c#\JJ	.
.	32aa\JJJ
24f#\LL	32aa\LLL
.	32ff#\
24c#\	.
.	32cc#\
24F#\JJ	.
.	32f#\JJJ
24C#\LL	32f#\LLL
.	32b#X\
24F#\	.
.	32ff#\
24B#X\JJ	.
.	32aa\JJJ
24f#\LL	32aa\LLL
.	32ff#\
24B#\	.
.	32b#\
24F#\JJ	.
.	32f#\JJJ
=482	=482
24C#\LL	32e#X\LLL
.	32b\
24E#X\	.
.	32ee#X\
24B\JJ	.
.	32aa\JJJ
24e#X\LL	32aa\LLL
.	32ee#\
24B\	.
.	32b\
24E#\JJ	.
.	32e#\JJJ
24C#\LL	32e#\LLL
.	32b\
24E#\	.
.	32ee#\
24B\JJ	.
.	32gg#\JJJ
24e#\LL	32gg#\LLL
.	32ee#\
24B\	.
.	32b\
24E#\JJ	.
.	32e#\JJJ
=483	=483
24FF#\LL	24f#\LL
24F#\	24a\
24A\JJ	24ff#\JJ
24f#\LL	24ff#\LL
24A\	24a\
24F#\JJ	24f#\JJ
24AA\LL	24f#\LL
24A\	24cc#\
24c#\JJ	24ff#\JJ
24a\LL	24ff#\LL
24c#\	24cc#\
24A\JJ	24f#\JJ
=484	=484
24BB\LL	24g#\LL
24B\	24dd\
24d\JJ	24gg#\JJ
24b\LL	24gg#\LL
24d\	24dd\
24B\JJ	24g#\JJ
24BB#X\LL	24a\LL
24B#X\	24dd#X\
24d#X\JJ	24aa\JJ
24b#X\LL	24aa\LL
24d#\	24dd#\
24B#\JJ	24a\JJ
!!LO:LB:g=original
=485	=485
!LO:TX:t=P:problem:mixed beam	!
24CC#/LL	24g#\LL
24B\	24dd\
24d\JJ	24gg#\JJ
24b\LL	24gg#\LL
24d\	24dd\
24B\JJ	24g#\JJ
24C#\LL	24f#\LL
24A\	24dd\
24d\JJ	24ff#\JJ
24a\LL	24ff#\LL
24d\	24dd\
24A\JJ	24f#\JJ
=486	=486
24C#\LL	24e#X\LL
24G#\	24cc#\
24c#\JJ	24ee#X\JJ
24g#\LL	24ee#\LL
24c#\	24cc#\
24G#\JJ	24e#\JJ
24C#\LL	24dd\LL
*clefG2	*
24d\	24ee#\
24e#X\JJ	24ddd\JJ
24dd\LL	24ddd\LL
24e#\	24ee#\
24d\JJ	24dd\JJ
*clefF4	*
=487	=487
24FF#\LL	24cc#\LL
24c#\	24ff#\
24f#\JJ	24ccc#\JJ
24cc#\LL	24ccc#\LL
24f#\	24ff#\
24c#\JJ	24cc#\JJ
24AA\LL	24f#\LL
24F#\	24cc#\
24c#\JJ	24ff#\JJ
24f#\LL	24ff#\LL
24c#\	24cc#\
24F#\JJ	24f#\JJ
=488	=488
24BB\LL	24f#\LL
24F#\	24dd\
24d\JJ	24ff#\JJ
24f#\LL	24ff#\LL
24d\	24dd\
24D\JJ	24f#\JJ
24BB#X\LL	24f#\LL
24F#\	24dd#X\
24d#X\JJ	24ff#\JJ
24f#\LL	24ff#\LL
24d#\	24dd#\
24F#\JJ	24f#\JJ
=489	=489
24CC#\LL	32f#\LLL
.	32cc#\
24F#\	.
.	32ff#\
24c#\JJ	.
.	32aa\JJJ
24f#\LL	32aa\LLL
.	32ff#\
24c#\	.
.	32cc#\
24F#\JJ	.
.	32f#\JJJ
24C#\LL	32f#\LLL
.	32b#X\
24F#\	.
.	32ff#\
24B#X\JJ	.
.	32aa\JJJ
24f#\LL	32aa\LLL
.	32ff#\
24B#\	.
.	32b#\
24F#\JJ	.
.	32f#\JJJ
!!LO:LB:g=original
=490	=490
24C#\LL	32e#X\LLL
.	32b\
24E#X\	.
.	32ee#X\
24B\JJ	.
.	32aa\JJJ
24e#X\LL	32aa\LLL
.	32ee#\
24B\	.
.	32b\
24E#\JJ	.
.	32e#\JJJ
24C#\LL	32e#\LLL
.	32b\
24E#\	.
.	32ee#\
24B\JJ	.
.	32gg#\JJJ
24e#\LL	32gg#\LLL
.	32ee#\
24B\	.
.	32b\
24E#\JJ	.
.	32e#\JJJ
=491	=491
*	*^
8FF# 8FFF#/	4ryy	8ff# 8cc# 8a 8f#\
[4.B [4.F# [4.D [4.FF#\	.	16fff#LL 16ddd\
.	.	16dddJJ 16bb\
.	16ryy	8bbL 8ff# 8dd\
.	8dddL 8bb 8ff#/	.
.	.	8ff#J 8dd 8b\
.	8bbJ 8ff# 8dd/	.
=492	=492	=492
*2\right	*	*
2B] 2F#] 2D] 2FF#\]	.	8ddL 8b 8f#\
.	8ff#L 8dd 8b/	.
.	.	8b 8f# 8d\
.	8dd 8b 8f#/	.
.	.	8f# 8d 8B\
.	8b 8f# 8d/	.
.	.	8dJ 8B 8F#\
!	!LO:N:vis=8	!
.	16f#Jk 16d 16B/	.
*	*clefF4	*
*	*v	*v
=493	=493
*	*rscale:1/2
4FFF#/	32DD\LLL
.	32EE#X\
.	32GG#\
.	32BB\
.	32D\
.	32E#X\
.	32G#\
.	32B\JJJ
*	*clefG2
4D 4BB 4GG# 4EE#X 4DD/	36d\LLL
.	36e#X\
.	36g#\
.	36b\
.	36dd\
.	36ee#y\
.	36gg#\
.	36bb\
.	36ddd\JJJ
*	*clefF4
=494	=494
4FFF#/	32EE#X\LLL
.	32GG#\
.	32BB\
.	32D\
.	32E#X\
.	32G#\
.	32B\
.	32d\JJJ
!!LO:LB:g=original
*	*clefG2
4E#X 4D 4BB 4GG# 4EE#X\	36e#X\LLL
.	36g#\
.	36b\
.	36dd\
.	36ee#X\
.	36gg#\
.	36bb\
.	36ddd\
.	36eee#X\JJJ
*	*rscale:1
=495	=495
*	*^
8FF# 8FFF#/	4ryy	8fff# 8ccc# 8aa 8ff#\
[4.b [4.f# [4.d [4.F#\	.	16fff#LL 16ddd\
.	.	16dddJJ 16bb\
.	16ryy	8bbL 8ff# 8dd\
.	8dddL 8bb 8ff#/	.
.	.	8ff#J 8dd 8b\
.	8bbJ 8ff# 8dd/	.
=496	=496	=496
2b] 2f#] 2d] 2F#\]	.	8ddL 8b 8f#\
.	8ff#L 8dd 8b/	.
.	.	8b 8f# 8d\
.	8dd 8b 8f#/	.
.	.	8f# 8d 8B\
.	8b 8f# 8d/	.
.	.	8dJ 8B 8F#\
!	!LO:N:vis=8	!
.	16f#Jk 16d 16B/	.
*	*clefF4	*
*	*v	*v
=497	=497
*	*rscale:1/2
*	*8va
4FF#\	32D\LLL
.	32E#X\
.	32G#\
.	32B\
.	32d\
.	32e#X\
.	32g#\
.	32b\JJJ
*	*clefG2
4d 4B 4G# 4E#X 4D\	36dd\LLL
.	36ee#X\
.	36gg#\
.	36bb\
.	36ddd\
.	36eee#y\
.	36ggg#\
.	36bbb\
.	36dddd\JJJ
*	*X8va
*	*clefF4
=498	=498
*	*8va
4FF#\	32E#X\LLL
.	32G#\
.	32B\
.	32d\
.	32e#X\
.	32g#\
.	32b\
.	32dd\JJJ
*	*clefG2
4e#X 4d 4B 4G# 4E#X\	36ee#X\LLL
.	36gg#\
.	36bb\
.	36ddd\
.	36eee#X\
.	36ggg#\
.	36bbb\
.	36dddd\
.	36eeee#X\JJJ
*	*X8va
*	*rscale:1
!!LO:LB:g=original
=499	=499
!	!LO:TX:t=P:problem:mixed beam
12F# 12FF#\	12fff#L 12ccc# 12aa 12ff#\
12FF#L 12FFF#\	12f# 12c# 12A 12F#/
12FF#J 12FFF#\	12f#J 12c# 12A 12F#/
12FF#L 12FFF#\	12f#L 12c# 12A 12F#/
12C# 12CC#\	12g# 12e#X 12c# 12G#/
12C#J 12CC#\	12g#J 12e# 12c# 12G#/
=500	=500
!	!LO:SIC:v:n=2:s=12e#
12C#L 12CC#\	12g#L 12e 12c# 12G#/
12F# 12FF#\	12a 12f# 12c# 12A/
12F#J 12FF#\	12aJ 12f# 12c# 12A/
12F#L 12FF#\	12aL 12f# 12c# 12A/
12C# 12CC#\	12cc# 12g# 12e#X 12c#/
12C#J 12CC#\	12cc#J 12g# 12e# 12c#/
=501	=501
12C#L 12CC#\	12cc#L 12g# 12e#X 12c#/
12FF# 12FFF#\	12ff# 12cc# 12a 12f#/
12FF#J 12FFF#\	12ff#J 12cc# 12a 12f#/
12FF#L 12FFF#\	12ff#L 12cc# 12a 12f#\
12C# 12CC#\	12gg# 12ee#X 12cc# 12g#\
12C#J 12CC#\	12gg#J 12ee# 12cc# 12g#\
=502	=502
12C#L 12CC#\	12gg#L 12ee#X 12cc# 12g#\
12F# 12FF#\	12aa 12ff# 12cc# 12a\
12F#J 12FF#\	12aaJ 12ff# 12cc# 12a\
12F#L 12FF#\	12aaL 12ff# 12cc# 12a\
12C# 12CC#\	12ccc# 12gg# 12ee#X 12cc#\
12C#J 12CC#\	12ccc#J 12gg# 12ee# 12cc#\
=503	=503
12C#L 12CC#/	12ccc#L 12gg# 12ee#X 12cc#\
12FF# 12FFF#/	12fff# 12ccc# 12aa 12ff#\
12FF#J 12FFF#/	12fff#J 12ccc# 12aa 12ff#\
12FF#L 12FFF#/	12fff#L 12ccc# 12aa 12ff#\
12CC# 12CCC#/	12ggg# 12eee#X 12ccc# 12gg#\
12CC#J 12CCC#/	12ggg#J 12eee# 12ccc# 12gg#\
!!LO:PB:g=original
=504	=504
*	*8va
12CC#L 12CCC#/	12ggg#L 12eee 12ccc# 12gg#\
12FF# 12FFF#/	12aaa 12fff# 12ccc# 12aa\
12FF#J 12FFF#/	12aaaJ 12fff# 12ccc# 12aa\
12FF#L 12FFF#/	12aaaL 12fff# 12ccc# 12aa\
12CC# 12CCC#/	12cccc# 12ggg# 12eee 12ccc#\
12CC#J 12CCC#/	12cccc#J 12ggg# 12eee 12ccc#\
=505	=505
8FF# 8FFF#/	8ffff# 8cccc# 8aaa 8fff#\
*	*X8va
8r	8r
8cc# 8f# 8A\	8fff# 8ccc# 8ff#\
8r	8r
=506	=506
!	!LO:TX:b:i:t=Fine.
32qqFF# 32qqCC# 32qqFFF#/	32qqf# 32qqc# 32qqA 32qqF#/
2FF# 2CC# 2FFF#;\	2f# 2c# 2A 2F#;/
==	==
*-	*-
!!!system-decoration: {(s1,s2)}
!!!RDF**kern: > = above
!!!RDF**kern: < = below
!!!RDF**kern: | = vertical stroke
!!!ENC: Andrzej Kubiczek
!!!END: 2021-06-15
!!!ENC: Anastazja Marusiak
!!!END: 2021-05-21
